!!!!SEGMENT: pl-wtm--r-690-m--004_moniuszko-stanislaw--sonety-krymskie-piesn-mlodziencza.krn
!!!cenid: 18xx:2704
!!!COM: Moniuszko, Stanisław
!!!COM-rismid: pe30008351
!!!CDT: 1819/05/05-1872/06/04
!!!CNT: Polish
!!!GTL: Sonety krymskie
!!!OTL: Pieśń młodzieńcza
!!!OMV: 004
!!!PDT:
!!!AGN: Secular
!!!SMS-siglum: PL-Wtm
!!!SMS-shelfmark: R 690/M
!!!SMS-shelfwork: 001-004 G
!!!SMS-variant:
!!!SMS-altvar:
!!!NIFC-rismid: 1001095900
!!!URL-scan: http://repozytorium.nifc.pl/skany/pl-wtm-nut--r690m-i-691m-1-2
!!!ONB-nifc: No. 3., „Partytura ostateczna”, od skanu 0033
!!!OMD: Allegro
**kern	**dynam	**kern	**kern	**dynam	**kern	**kern	**kern	**kern	**kern	**dynam	**kern	**dynam	**kern	**dynam	**kern	**dynam	**kern	**dynam	**kern	**dynam	**kern	**kern	**kern	**kern	**dynam	**kern	**dynam	**kern	**dynam	**kern	**dynam	**kern	**dynam	**kern	**dynam	**kern	**dynam
*part23	*part23	*part22	*part21	*part21	*part20	*part19	*part18	*part17	*part16	*part16	*part15	*part15	*part14	*part14	*part13	*part13	*part12	*part12	*part11	*part11	*part10	*part9	*part8	*part7	*part7	*part6	*part6	*part5	*part5	*part4	*part4	*part3	*part3	*part2	*part2	*part1	*part1
*staff23	*	*staff22	*staff21	*	*staff20	*staff19	*staff18	*staff17	*staff16	*	*staff15	*	*staff14	*	*staff13	*	*staff12	*	*staff11	*	*staff10	*staff9	*staff8	*staff7	*	*staff6	*	*staff5	*	*staff4	*	*staff3	*	*staff2	*	*staff1	*
*I"CBassi:	*	*I"Violoncello	*I"Violi.	*	*I"Basso	*I"Tenore	*I"Alto	*I"Soprano	*I"Vla	*	*I"V.2.	*	*I"V.1.	*	*I"Trombone	*	*I"Trombone	*	*I"Tromba in C	*	*I"Arpa	*I"Arpa	*I"Timpani	*I"Corni in D	*	*I"Corni in F	*	*I"Fagotti	*	*I"Clarinetti. in a. 	*	*I"Oboi	*	*I"Piccolo	*	*I"Flauto	*
*I'cb	*	*I'V-c.	*I'vlc	*	*I'B.	*I'T.	*I'A.	*I'S	*I'vla	*	*I'vl 2	*	*I'vl 1	*	*I'Tr-ne	*	*I'Tr-ne	*	*I'Tr-ba in C	*	*I'Ar.	*I'Ar.	*I'Timp.	*I'cor in D	*	*I'cor in F	*	*I'fag	*	*I'cl in A	*	*I'ob	*	*I'fl.picc	*	*I'fl	*
*clefF4	*	*clefF4	*clefF4	*	*clefF4	*clefGv2	*clefG2	*clefG2	*clefC3	*	*clefG2	*	*clefG2	*	*clefF4	*	*clefC4	*	*clefG2	*	*clefF4	*clefG2	*clefF4	*clefG2	*	*clefG2	*	*clefF4	*	*clefG2	*	*clefG2	*	*clefG2	*	*clefG2	*
*ITrd0c0	*	*	*	*	*	*	*	*	*	*	*	*	*	*	*	*	*	*	*	*	*	*	*	*ITrd6c10	*	*ITrd4c7	*	*	*	*ITrd2c3	*	*	*	*ITrd0c0	*	*	*
*k[f#c#g#]	*	*k[f#c#g#]	*k[f#c#g#]	*	*k[f#c#g#]	*k[f#c#g#]	*k[f#c#g#]	*k[f#c#g#]	*k[f#c#g#]	*	*k[f#c#g#]	*	*k[f#c#g#]	*	*k[f#c#g#]	*	*k[f#c#g#]	*	*k[]	*	*k[f#c#g#]	*k[f#c#g#]	*k[]	*k[f#c#]	*	*k[b-]	*	*k[f#c#g#]	*	*k[f#c#g#]	*	*k[f#c#g#]	*	*k[f#c#g#]	*	*k[f#c#g#]	*
*A:	*	*A:	*A:	*	*A:	*A:	*A:	*A:	*A:	*	*A:	*	*A:	*	*A:	*	*A:	*	*A:	*	*A:	*A:	*A:	*A:	*	*A:	*	*A:	*	*A:	*	*A:	*	*A:	*	*A:	*
*M6/8	*	*M6/8	*M6/8	*	*M6/8	*M6/8	*M6/8	*M6/8	*M6/8	*	*M6/8	*	*M6/8	*	*M6/8	*	*M6/8	*	*M6/8	*	*M6/8	*M6/8	*M6/8	*M6/8	*	*M6/8	*	*M6/8	*	*M6/8	*	*M6/8	*	*M6/8	*	*M6/8	*
=1	=1	=1	=1	=1	=1	=1	=1	=1	=1	=1	=1	=1	=1	=1	=1	=1	=1	=1	=1	=1	=1	=1	=1	=1	=1	=1	=1	=1	=1	=1	=1	=1	=1	=1	=1	=1	=1
*	*	*	*	*	*	*	*	*	*	*	*	*	*	*	*	*	*	*	*	*	*	*	*	*	*	*	*	*	*	*	*	*	*	*	*	*all\right	*
!	!	!	!	!	!	!	!	!	!	!	!	!	!	!	!	!	!	!	!	!	!	!	!	!	!	!	!	!	!	!	!	!	!	!	!	!LO:TX:a:t=Pieśń młodzieńca .	!
!	!	!	!	!	!	!	!	!	!	!LO:DY:rj	!	!LO:DY:rj	!	!LO:DY:rj	!	!	!	!	!	!	!	!	!	!	!	!	!	!	!	!	!	!	!	!	!	!LO:TX:a:t=Partytura ostateczna:color=blue	!
8AA^/	.	2.ryy	8AA^/L	.	2.ryy	2.ryy	2.ryy	2.ryy	8A^/L	f	8A^/L	f	8A/L	f	2.ryy	.	2.ryy	.	2.ryy	.	2.ryy	2.ryy	2.ryy	2.ryy	.	2.ryy	.	2.ryy	.	2.ryy	.	2.ryy	.	2.ryy	.	2.ryy	.
8r	.	.	8C#/	.	.	.	.	.	8C#/	.	8c#/	.	8c#/	.	.	.	.	.	.	.	.	.	.	.	.	.	.	.	.	.	.	.	.	.	.	.	.
8r	.	.	8E/J	.	.	.	.	.	8E/J	.	8e/J	.	8e/J	.	.	.	.	.	.	.	.	.	.	.	.	.	.	.	.	.	.	.	.	.	.	.	.
4r	.	.	4A\	.	.	.	.	.	4A/	.	4a\	.	4a\	.	.	.	.	.	.	.	.	.	.	.	.	.	.	.	.	.	.	.	.	.	.	.	.
8r	.	.	8c#\	.	.	.	.	.	8c#\	.	8cc#\	.	8cc#\	.	.	.	.	.	.	.	.	.	.	.	.	.	.	.	.	.	.	.	.	.	.	.	.
=2	=2	=2	=2	=2	=2	=2	=2	=2	=2	=2	=2	=2	=2	=2	=2	=2	=2	=2	=2	=2	=2	=2	=2	=2	=2	=2	=2	=2	=2	=2	=2	=2	=2	=2	=2	=2	=2
*	*	*	*	*	*	*	*	*	*	*	*	*	*	*	*	*	*	*	*	*	*	*	*	*^	*	*	*	*	*	*	*	*	*	*	*	*	*
!	!	!	!	!	!	!	!	!	!	!	!	!	!	!	!	!	!	!	!	!	!	!	!	!	!	!	!	!	!	!	!LO:TX:a:rj:t=(x)	!	!	!	!	!	!	!
!	!	!	!	!	!	!	!	!	!	!	!	!	!	!	!	!	!	!	!	!	!	!	!	!	!	!	!	!	!	!	!LO:SIC:o:v:t=wykreślone dwa takty	!	!	!	!	!	!	!
4r	.	2.ryy	8e\	.	2.ryy	2.ryy	2.ryy	2.ryy	8e\	.	8ee\	.	8ee\	.	4r	.	4r	.	4r	.	2.ryy	2.ryy	2.ryy	4r	4ryy	.	4r	.	4r	.	4r	.	4r	.	2.ryy	.	4r	.
.	.	.	8r	.	.	.	.	.	8r	.	8r	.	8r	.	.	.	.	.	.	.	.	.	.	.	.	.	.	.	.	.	.	.	.	.	.	.	.	.
8r	.	.	8r	.	.	.	.	.	8r	.	8r	.	8r	.	8r	.	8r	.	8r	.	.	.	.	8r	8ryy	.	8r	.	8r	.	8r	.	8r	.	.	.	8r	.
!	!	!	!	!	!	!	!	!	!	!	!	!LO:DY:rj	!	!LO:DY:rj	!	!LO:DY:rj	!	!LO:DY:rj	!	!LO:DY:rj	!	!	!	!	!	!LO:DY:rj	!	!LO:DY:rj	!	!	!	!	!	!	!	!	!	!
8E\	sf	.	8E\	sf	.	.	.	.	8e\	sf	8dd/ 8e/	sf	8gg#\ 8b\	sf	8E\	sf	8e\ 8B\	sf	8ee\ 8e\	sf	.	.	.	8e/	8e\	sf	8g#X/ 8BX/	sf	8B\ 8E\	sf	8gg#\ 8b\	sf	8bb\ 8dd\	sf	.	.	8eee\ 8gg#\	sf
8r	.	.	8r	.	.	.	.	.	8r	.	8r	.	8r	.	8r	.	8r	.	8r	.	.	.	.	8r	8ryy	.	8r	.	8r	.	8r	.	8r	.	.	.	8ryy	.
8r	.	.	8r	.	.	.	.	.	8r	.	8r	.	8r	.	8r	.	8r	.	8r	.	.	.	.	8r	8ryy	.	8r	.	8r	.	8r	.	8r	.	.	.	8ryy	.
*	*	*	*	*	*	*	*	*	*	*	*	*	*	*	*	*	*	*	*	*	*	*	*	*v	*v	*	*	*	*	*	*	*	*	*	*	*	*	*
=3	=3	=3	=3	=3	=3	=3	=3	=3	=3	=3	=3	=3	=3	=3	=3	=3	=3	=3	=3	=3	=3	=3	=3	=3	=3	=3	=3	=3	=3	=3	=3	=3	=3	=3	=3	=3	=3
!	!	!	!	!	!	!	!	!	!	!	!	!LO:DY:rj	!	!LO:DY:rj	!	!LO:DY:rj	!	!LO:DY:rj	!	!LO:DY:rj	!	!	!	!	!LO:DY:rj	!	!LO:DY:rj	!	!	!	!	!	!	!	!	!	!
8AA/	.	2.ryy	8AA/	sf	2.ryy	2.ryy	2.ryy	2.ryy	8a\ 8e\ 8c#\	sf	8cc#/ 8e/	sf	8aa\ 8a\	sf	8AA/	sf	8e\ 8c#X\	sf	8cc#X\ 8a\	sf	2.ryy	2.ryy	2.ryy	8e\ 8A\	sf	8a\ 8c#X\	sf	8c#\ 8AA\	sf	8aa\ 8cc#\	sf	8aa\ 8cc#\	sf	2.ryy	.	8ccc#\ 8aa\	sf
8r	.	.	8r	.	.	.	.	.	8r	.	8r	.	8r	.	8r	.	8r	.	8r	.	.	.	.	8r	.	8r	.	8r	.	8r	.	8r	.	.	.	8r	.
8r	.	.	8r	.	.	.	.	.	8r	.	8r	.	8r	.	8r	.	8r	.	8r	.	.	.	.	8r	.	8r	.	8r	.	8r	.	8r	.	.	.	8r	.
4r;	.	.	4r;	.	.	.	.	.	4r;	.	4r;	.	4r;	.	4r;	.	4r;	.	4r	.	.	.	.	4r	.	4r;	.	4r;	.	4r;	.	4r	.	.	.	4r;	.
8r	.	.	8r	.	.	.	.	.	8r	.	8r	.	8r	.	8r	.	8r	.	8r;	.	.	.	.	8r;	.	8r	.	8r	.	8r	.	8r	.	.	.	8r	.
=4	=4	=4	=4	=4	=4	=4	=4	=4	=4	=4	=4	=4	=4	=4	=4	=4	=4	=4	=4	=4	=4	=4	=4	=4	=4	=4	=4	=4	=4	=4	=4	=4	=4	=4	=4	=4	=4
!	!	!	!	!	!	!	!	!	!	!	!	!	!	!	!	!	!	!	!	!	!	!	!	!	!	!LO:TX:a:t=muta in E.	!	!	!	!	!	!	!	!	!	!	!
2.r	.	2.ryy	4r	.	2.ryy	2.ryy	2.ryy	2.ryy	4r	.	4r	.	4r	.	2.ryy	.	2.ryy	.	2.ryy	.	2.ryy	2.ryy	2.ryy	2.ryy	.	2.ryy	.	2.ryy	.	2.ryy	.	2.ryy	.	2.ryy	.	2.ryy	.
.	.	.	8r	.	.	.	.	.	8r	.	8r	.	8r	.	.	.	.	.	.	.	.	.	.	.	.	.	.	.	.	.	.	.	.	.	.	.	.
!	!	!	!	!LO:DY:rj	!	!	!	!	!	!LO:DY:rj	!	!LO:DY:rj	!	!LO:DY:rj	!	!	!	!	!	!	!	!	!	!	!	!	!	!	!	!	!	!	!	!	!	!	!
.	.	.	(4.c#^\	p	.	.	.	.	(4.e#X^\	p	(>4.g#^/	p	(4.b^\	p	.	.	.	.	.	.	.	.	.	.	.	.	.	.	.	.	.	.	.	.	.	.	.
=5	=5	=5	=5	=5	=5	=5	=5	=5	=5	=5	=5	=5	=5	=5	=5	=5	=5	=5	=5	=5	=5	=5	=5	=5	=5	=5	=5	=5	=5	=5	=5	=5	=5	=5	=5	=5	=5
2.r	.	2.ryy	4.d^\	.	2.ryy	2.ryy	2.ryy	2.ryy	4.f#^\	.	4.f#^/	.	4.b^\	.	2.ryy	.	2.ryy	.	2.ryy	.	2.ryy	2.ryy	2.ryy	2.ryy	.	2.ryy	.	2.ryy	.	2.ryy	.	2.ryy	.	2.ryy	.	2.ryy	.
.	.	.	4.A#X^\	.	.	.	.	.	4.f#^\	.	4.e^/	.	4.cc#^\	.	.	.	.	.	.	.	.	.	.	.	.	.	.	.	.	.	.	.	.	.	.	.	.
=6	=6	=6	=6	=6	=6	=6	=6	=6	=6	=6	=6	=6	=6	=6	=6	=6	=6	=6	=6	=6	=6	=6	=6	=6	=6	=6	=6	=6	=6	=6	=6	=6	=6	=6	=6	=6	=6
2.r	.	2.ryy	4B\)	.	2.ryy	2.ryy	2.ryy	2.ryy	4f#\)	.	4d/)	.	4dd\)	.	2.ryy	.	2.ryy	.	2.ryy	.	2.ryy	2.ryy	2.ryy	2.ryy	.	2.ryy	.	2.ryy	.	2.ryy	.	2.ryy	.	2.ryy	.	2.ryy	.
.	.	.	8r	.	.	.	.	.	8r	.	8r	.	8r	.	.	.	.	.	.	.	.	.	.	.	.	.	.	.	.	.	.	.	.	.	.	.	.
.	.	.	4.D\	.	.	.	.	.	4.B/	.	4.f#/	.	(4f#/	.	.	.	.	.	.	.	.	.	.	.	.	.	.	.	.	.	.	.	.	.	.	.	.
.	.	.	.	.	.	.	.	.	.	.	.	.	8b/)	.	.	.	.	.	.	.	.	.	.	.	.	.	.	.	.	.	.	.	.	.	.	.	.
=7	=7	=7	=7	=7	=7	=7	=7	=7	=7	=7	=7	=7	=7	=7	=7	=7	=7	=7	=7	=7	=7	=7	=7	=7	=7	=7	=7	=7	=7	=7	=7	=7	=7	=7	=7	=7	=7
4r	.	2.ryy	4E\	.	2.ryy	2.ryy	2.ryy	2.ryy	4B/	.	4e/	.	8g#/L	.	2.ryy	.	2.ryy	.	2.ryy	.	2.ryy	2.ryy	2.ryy	2.ryy	.	2.ryy	.	2.ryy	.	2.ryy	.	2.ryy	.	2.ryy	.	2.ryy	.
.	.	.	.	.	.	.	.	.	.	.	.	.	8a/	.	.	.	.	.	.	.	.	.	.	.	.	.	.	.	.	.	.	.	.	.	.	.	.
8r	.	.	8r	.	.	.	.	.	8r	.	8r	.	8b/J	.	.	.	.	.	.	.	.	.	.	.	.	.	.	.	.	.	.	.	.	.	.	.	.
!	!LO:DY:rj	!	!	!	!	!	!	!	!	!	!	!	!	!	!	!	!	!	!	!	!	!	!	!	!	!	!	!	!	!	!	!	!	!	!	!	!
(4E^\	p	.	(4E^\	.	.	.	.	.	4r	.	4r	.	4e/	.	.	.	.	.	.	.	.	.	.	.	.	.	.	.	.	.	.	.	.	.	.	.	.
8D\)	.	.	8D\)	.	.	.	.	.	8ryy	.	8r	.	8r	.	.	.	.	.	.	.	.	.	.	.	.	.	.	.	.	.	.	.	.	.	.	.	.
!!LO:PB:g=original
=8	=8	=8	=8	=8	=8	=8	=8	=8	=8	=8	=8	=8	=8	=8	=8	=8	=8	=8	=8	=8	=8	=8	=8	=8	=8	=8	=8	=8	=8	=8	=8	=8	=8	=8	=8	=8	=8
4C#/	.	8CC#'/L	8E'/L	.	2.ryy	2.ryy	2.ryy	2.ryy	8A/	.	8e/	.	8a/	.	2.ryy	.	2.ryy	.	2.ryy	.	2.ryy	2.ryy	2.ryy	2.ryy	.	2.ryy	.	2.ryy	.	2.ryy	.	2.ryy	.	2.ryy	.	2.ryy	.
.	.	8DD'/	8F#'/	.	.	.	.	.	8r	.	8r	.	8r	.	.	.	.	.	.	.	.	.	.	.	.	.	.	.	.	.	.	.	.	.	.	.	.
8r	.	8EE'/J	8G#'/J	.	.	.	.	.	8A/	.	8c#/	.	8a/	.	.	.	.	.	.	.	.	.	.	.	.	.	.	.	.	.	.	.	.	.	.	.	.
*	*	*rep	*rep	*	*	*	*	*	*	*	*	*	*	*	*	*	*	*	*	*	*	*	*	*	*	*	*	*	*	*	*	*	*	*	*	*	*
4C#/	.	8CC#'/L	8E'/L	.	.	.	.	.	8A/	.	8e/	.	8a/	.	.	.	.	.	.	.	.	.	.	.	.	.	.	.	.	.	.	.	.	.	.	.	.
.	.	8DD'/	8F#'/	.	.	.	.	.	8r	.	8r	.	8r	.	.	.	.	.	.	.	.	.	.	.	.	.	.	.	.	.	.	.	.	.	.	.	.
8r	.	8EE'/J	8G#'/J	.	.	.	.	.	8A/	.	8e/	.	8g#/	.	.	.	.	.	.	.	.	.	.	.	.	.	.	.	.	.	.	.	.	.	.	.	.
*	*	*Xrep	*Xrep	*	*	*	*	*	*	*	*	*	*	*	*	*	*	*	*	*	*	*	*	*	*	*	*	*	*	*	*	*	*	*	*	*	*
=9	=9	=9	=9	=9	=9	=9	=9	=9	=9	=9	=9	=9	=9	=9	=9	=9	=9	=9	=9	=9	=9	=9	=9	=9	=9	=9	=9	=9	=9	=9	=9	=9	=9	=9	=9	=9	=9
*	*	*	*	*	*	*	*	*	*rep	*	*	*	*	*	*	*	*	*	*	*	*	*	*	*	*	*	*	*	*	*	*	*	*	*	*	*	*
4D/	.	8DD/L	8D\L	.	2.ryy	2.ryy	2.ryy	2.ryy	8A/	.	(4e/	.	(4g#/	.	2.ryy	.	2.ryy	.	2.ryy	.	2.ryy	2.ryy	2.ryy	2.ryy	.	2.ryy	.	2.ryy	.	2.ryy	.	2.ryy	.	2.ryy	.	2.ryy	.
.	.	8EE/	8E\	.	.	.	.	.	8r	.	.	.	.	.	.	.	.	.	.	.	.	.	.	.	.	.	.	.	.	.	.	.	.	.	.	.	.
8r	.	8FF#/J	8F#\J	.	.	.	.	.	8A/	.	8d/)	.	8f#/)	.	.	.	.	.	.	.	.	.	.	.	.	.	.	.	.	.	.	.	.	.	.	.	.
4F#\	.	8EE/L	8E\L	.	.	.	.	.	8A/	.	8d/	.	8f#/	.	.	.	.	.	.	.	.	.	.	.	.	.	.	.	.	.	.	.	.	.	.	.	.
.	.	8DD/	8D\	.	.	.	.	.	8r	.	8r	.	8r	.	.	.	.	.	.	.	.	.	.	.	.	.	.	.	.	.	.	.	.	.	.	.	.
8r	.	8CC#/J	8C#\J	.	.	.	.	.	8A/	.	8f#/	.	8f#/	.	.	.	.	.	.	.	.	.	.	.	.	.	.	.	.	.	.	.	.	.	.	.	.
*	*	*	*	*	*	*	*	*	*Xrep	*	*	*	*	*	*	*	*	*	*	*	*	*	*	*	*	*	*	*	*	*	*	*	*	*	*	*	*
=10	=10	=10	=10	=10	=10	=10	=10	=10	=10	=10	=10	=10	=10	=10	=10	=10	=10	=10	=10	=10	=10	=10	=10	=10	=10	=10	=10	=10	=10	=10	=10	=10	=10	=10	=10	=10	=10
4BB/	.	8r	8BB\L	.	2.ryy	2.ryy	2.ryy	2.ryy	8B/	.	8f#/	.	(8dd\L	.	2.ryy	.	2.ryy	.	2.ryy	.	2.ryy	2.ryy	2.ryy	2.ryy	.	2.ryy	.	2.ryy	.	2.ryy	.	2.ryy	.	2.ryy	.	2.ryy	.
.	.	8CC#/L	8C#\	.	.	.	.	.	8r	.	8r	.	8cc#\)	.	.	.	.	.	.	.	.	.	.	.	.	.	.	.	.	.	.	.	.	.	.	.	.
8r	.	8DD/J	8D\J	.	.	.	.	.	8B/	.	8f#/	.	8b'\J	.	.	.	.	.	.	.	.	.	.	.	.	.	.	.	.	.	.	.	.	.	.	.	.
4C#/	.	8CC#/L	8C#\L	.	.	.	.	.	8E/	.	8e/	.	(8a/L	.	.	.	.	.	.	.	.	.	.	.	.	.	.	.	.	.	.	.	.	.	.	.	.
.	.	8DD/	8D\	.	.	.	.	.	8r	.	8r	.	8g#/)	.	.	.	.	.	.	.	.	.	.	.	.	.	.	.	.	.	.	.	.	.	.	.	.
8r	.	8EE/J	8E\J	.	.	.	.	.	(>8E/	.	8d/	.	8f#'/J	.	.	.	.	.	.	.	.	.	.	.	.	.	.	.	.	.	.	.	.	.	.	.	.
=11	=11	=11	=11	=11	=11	=11	=11	=11	=11	=11	=11	=11	=11	=11	=11	=11	=11	=11	=11	=11	=11	=11	=11	=11	=11	=11	=11	=11	=11	=11	=11	=11	=11	=11	=11	=11	=11
4D\	.	8DD/L	8D\L	.	2.ryy	2.ryy	2.ryy	2.ryy	8F#/)	.	(4d/	.	4.f#^/	.	2.ryy	.	2.ryy	.	2.ryy	.	2.ryy	2.ryy	2.ryy	2.ryy	.	2.ryy	.	2.ryy	.	2.ryy	.	2.ryy	.	2.ryy	.	2.ryy	.
.	.	8EE/	8E\	.	.	.	.	.	8r	.	.	.	.	.	.	.	.	.	.	.	.	.	.	.	.	.	.	.	.	.	.	.	.	.	.	.	.
8r	.	8FF#/J	8F#\J	.	.	.	.	.	8B/	.	8B/)	.	.	.	.	.	.	.	.	.	.	.	.	.	.	.	.	.	.	.	.	.	.	.	.	.	.
4E\	.	8GG#/L	8G#\L	.	.	.	.	.	(8B/L	.	(8B/L	.	8e/	.	.	.	.	.	.	.	.	.	.	.	.	.	.	.	.	.	.	.	.	.	.	.	.
.	.	8AA/	8A\	.	.	.	.	.	8A/)	.	8c#/)	.	8r	.	.	.	.	.	.	.	.	.	.	.	.	.	.	.	.	.	.	.	.	.	.	.	.
8r	.	8BB/J	8B\J	.	.	.	.	.	8G#/J	.	8d'/J	.	8e/	.	.	.	.	.	.	.	.	.	.	.	.	.	.	.	.	.	.	.	.	.	.	.	.
=12	=12	=12	=12	=12	=12	=12	=12	=12	=12	=12	=12	=12	=12	=12	=12	=12	=12	=12	=12	=12	=12	=12	=12	=12	=12	=12	=12	=12	=12	=12	=12	=12	=12	=12	=12	=12	=12
4A\	.	8AA/L	8A'\L	.	2.ryy	2.ryy	2.ryy	2.ryy	8A'/	.	8c#/	.	8cc#\	.	2.ryy	.	2.ryy	.	2.ryy	.	2.ryy	2.ryy	2.ryy	2.ryy	.	2.ryy	.	2.ryy	.	2.ryy	.	2.ryy	.	2.ryy	.	2.ryy	.
.	.	8BB/	8B'\	.	.	.	.	.	8r	.	8r	.	8r	.	.	.	.	.	.	.	.	.	.	.	.	.	.	.	.	.	.	.	.	.	.	.	.
8r	.	8C#/J	8c#'\J	.	.	.	.	.	8A'/	.	8e/	.	8a/	.	.	.	.	.	.	.	.	.	.	.	.	.	.	.	.	.	.	.	.	.	.	.	.
4E\	.	8EE/L	8E'\L	.	.	.	.	.	8B/	.	8e/	.	8g#/	.	.	.	.	.	.	.	.	.	.	.	.	.	.	.	.	.	.	.	.	.	.	.	.
.	.	8FF#/	8F#'\	.	.	.	.	.	8r	.	8r	.	8r	.	.	.	.	.	.	.	.	.	.	.	.	.	.	.	.	.	.	.	.	.	.	.	.
8r	.	8GG#/J	8G#'\J	.	.	.	.	.	8E/	.	8d/	.	8b/	.	.	.	.	.	.	.	.	.	.	.	.	.	.	.	.	.	.	.	.	.	.	.	.
=13	=13	=13	=13	=13	=13	=13	=13	=13	=13	=13	=13	=13	=13	=13	=13	=13	=13	=13	=13	=13	=13	=13	=13	=13	=13	=13	=13	=13	=13	=13	=13	=13	=13	=13	=13	=13	=13
4F#\	.	8FF#/L	8F#\L	.	2.ryy	2.ryy	2.ryy	2.ryy	8F#/	.	8c#/	.	(4b/	.	2.ryy	.	2.ryy	.	2.ryy	.	2.ryy	2.ryy	2.ryy	2.ryy	.	2.ryy	.	2.ryy	.	2.ryy	.	2.ryy	.	2.ryy	.	2.ryy	.
.	.	8GG#/	8G#\	.	.	.	.	.	8r	.	8r	.	.	.	.	.	.	.	.	.	.	.	.	.	.	.	.	.	.	.	.	.	.	.	.	.	.
8r	.	8AA/J	8A\J	.	.	.	.	.	8F#/	.	(8c#/	.	8a/)	.	.	.	.	.	.	.	.	.	.	.	.	.	.	.	.	.	.	.	.	.	.	.	.
4C#\	.	8CC#/L	8C#/L 8FF#/	.	.	.	.	.	8A/	.	8e/)	.	8a/	.	.	.	.	.	.	.	.	.	.	.	.	.	.	.	.	.	.	.	.	.	.	.	.
.	.	8DD/	8D/	.	.	.	.	.	8r	.	8r	.	8r	.	.	.	.	.	.	.	.	.	.	.	.	.	.	.	.	.	.	.	.	.	.	.	.
8r	.	8EE/J	8E/J	.	.	.	.	.	8A'/	.	8e/	.	8a/	.	.	.	.	.	.	.	.	.	.	.	.	.	.	.	.	.	.	.	.	.	.	.	.
=14	=14	=14	=14	=14	=14	=14	=14	=14	=14	=14	=14	=14	=14	=14	=14	=14	=14	=14	=14	=14	=14	=14	=14	=14	=14	=14	=14	=14	=14	=14	=14	=14	=14	=14	=14	=14	=14
4D\	.	8DD/L	8D\L	.	2.ryy	2.ryy	2.ryy	2.ryy	(4f#^\	.	(4f#^/	.	(4a/	.	2.ryy	.	2.ryy	.	2.ryy	.	2.ryy	2.ryy	2.ryy	2.ryy	.	2.ryy	.	2.ryy	.	2.ryy	.	2.ryy	.	2.ryy	.	2.ryy	.
.	.	8EE/	8E\	.	.	.	.	.	.	.	.	.	.	.	.	.	.	.	.	.	.	.	.	.	.	.	.	.	.	.	.	.	.	.	.	.	.
8r	.	8FF#/J	8F#\J	.	.	.	.	.	8e\)	.	8e/)	.	8a#X/)	.	.	.	.	.	.	.	.	.	.	.	.	.	.	.	.	.	.	.	.	.	.	.	.
4BB/	.	8r	8BB/L	.	.	.	.	.	(8d\L	.	(8d/L	.	8b/	.	.	.	.	.	.	.	.	.	.	.	.	.	.	.	.	.	.	.	.	.	.	.	.
.	.	8CC#/L	8C#/	.	.	.	.	.	8c#\)	.	8e/)	.	8r	.	.	.	.	.	.	.	.	.	.	.	.	.	.	.	.	.	.	.	.	.	.	.	.
8r	.	8DD/J	8D/J	.	.	.	.	.	8B'\J	.	8f#/J	.	8an/	.	.	.	.	.	.	.	.	.	.	.	.	.	.	.	.	.	.	.	.	.	.	.	.
=15	=15	=15	=15	=15	=15	=15	=15	=15	=15	=15	=15	=15	=15	=15	=15	=15	=15	=15	=15	=15	=15	=15	=15	=15	=15	=15	=15	=15	=15	=15	=15	=15	=15	=15	=15	=15	=15
*	*	*	*	*	*	*	*	*	*	*	*	*	*^	*	*	*	*	*	*	*	*	*	*	*	*	*	*	*	*	*	*	*	*	*	*	*	*
4E\	.	8EE/L	8E\L	.	2.ryy	2.ryy	2.ryy	2.ryy	8B/	.	8e/	.	8a/	2ryy	.	2.ryy	.	2.ryy	.	2.ryy	.	2.ryy	2.ryy	2.ryy	2.ryy	.	2.ryy	.	2.ryy	.	2.ryy	.	2.ryy	.	2.ryy	.	2.ryy	.
.	.	8FF#/	8F#\	.	.	.	.	.	8r	.	8r	.	8r	.	.	.	.	.	.	.	.	.	.	.	.	.	.	.	.	.	.	.	.	.	.	.	.	.
8r	.	8EE/J	8E\J	.	.	.	.	.	8B/	.	8e/	.	8a/	.	.	.	.	.	.	.	.	.	.	.	.	.	.	.	.	.	.	.	.	.	.	.	.	.
4E\	.	8D/L	8D/L	.	.	.	.	.	4B/	.	4e/	.	8g#/	.	.	.	.	.	.	.	.	.	.	.	.	.	.	.	.	.	.	.	.	.	.	.	.	.
.	.	8C#/	8C#/	.	.	.	.	.	.	.	.	.	8r	8ryy	.	.	.	.	.	.	.	.	.	.	.	.	.	.	.	.	.	.	.	.	.	.	.	.
!	!	!	!	!	!	!	!	!	!	!	!	!	!LO:TX:a:t=divisi.	!	!	!	!	!	!	!	!	!	!	!	!	!	!	!	!	!	!	!	!	!	!	!	!	!
8r	.	8BB/J	8BB/J	.	.	.	.	.	8r	.	8r	.	8ee/	8e\	.	.	.	.	.	.	.	.	.	.	.	.	.	.	.	.	.	.	.	.	.	.	.	.
*	*	*	*	*	*	*	*	*	*	*	*	*	*v	*v	*	*	*	*	*	*	*	*	*	*	*	*	*	*	*	*	*	*	*	*	*	*	*	*
!!LO:PB:g=original
=16	=16	=16	=16	=16	=16	=16	=16	=16	=16	=16	=16	=16	=16	=16	=16	=16	=16	=16	=16	=16	=16	=16	=16	=16	=16	=16	=16	=16	=16	=16	=16	=16	=16	=16	=16	=16	=16
*	*	*	*	*	*	*	*	*	*	*	*	*	*	*	*	*	*	*	*	*	*	*	*	*	*	*	*	*	*	*	*	*	*	*	*	*2\right	*
4r	.	2.ryy	4AA/	.	2.ryy	2.ryy	2.ryy	2.ryy	8r	.	4r	.	[4.ccc#\ [>4.cc#\	p	2.ryy	.	2.ryy	.	2.ryy	.	2.ryy	2.ryy	2.ryy	2.ryy	.	2.ryy	.	2.ryy	.	2.ryy	.	2.ryy	.	2.r	.	[2.ee\	p
.	.	.	.	.	.	.	.	.	8E/L	.	.	.	.	.	.	.	.	.	.	.	.	.	.	.	.	.	.	.	.	.	.	.	.	.	.	.	.
8r	.	.	8r	.	.	.	.	.	(8A/J	.	8r	.	.	.	.	.	.	.	.	.	.	.	.	.	.	.	.	.	.	.	.	.	.	.	.	.	.
!	!	!	!	!	!	!	!	!	!	!	!	!LO:DY:rj:t=pia	!	!	!	!	!	!	!	!	!	!	!	!	!	!	!	!	!	!	!	!	!	!	!	!	!
4E\	.	.	4r	.	.	.	.	.	8c#/L	.	4a/ 4e/ 4c#/	p	4ccc#\] 4cc#\]	.	.	.	.	.	.	.	.	.	.	.	.	.	.	.	.	.	.	.	.	.	.	.	.
.	.	.	.	.	.	.	.	.	8A/)	.	.	.	.	.	.	.	.	.	.	.	.	.	.	.	.	.	.	.	.	.	.	.	.	.	.	.	.
8r	.	.	8r	.	.	.	.	.	8E/J	.	8r	.	8aa\ 8a\	.	.	.	.	.	.	.	.	.	.	.	.	.	.	.	.	.	.	.	.	.	.	.	.
=17	=17	=17	=17	=17	=17	=17	=17	=17	=17	=17	=17	=17	=17	=17	=17	=17	=17	=17	=17	=17	=17	=17	=17	=17	=17	=17	=17	=17	=17	=17	=17	=17	=17	=17	=17	=17	=17
*rep	*	*	*	*	*	*	*	*	*	*	*	*	*	*	*	*	*	*	*	*	*	*	*	*	*	*	*	*	*	*	*	*	*	*	*	*	*
4r	.	2.ryy	8BB/	.	2.ryy	2.ryy	2.ryy	2.ryy	8r	.	4.r	.	[4.gg#\ [4.g#\	.	2.ryy	.	2.ryy	.	2.ryy	.	2.ryy	2.ryy	2.ryy	2.ryy	.	2.ryy	.	2.ryy	.	2.ryy	.	2.ryy	.	2.r	.	2.ee\]	.
.	.	.	8r	.	.	.	.	.	8E/L	.	.	.	.	.	.	.	.	.	.	.	.	.	.	.	.	.	.	.	.	.	.	.	.	.	.	.	.
8r	.	.	8r	.	.	.	.	.	(8B/J	.	.	.	.	.	.	.	.	.	.	.	.	.	.	.	.	.	.	.	.	.	.	.	.	.	.	.	.
4E\	.	.	4r	.	.	.	.	.	8d/L	.	4ee/ 4b/ 4d/	.	4gg#\] 4g#\]	.	.	.	.	.	.	.	.	.	.	.	.	.	.	.	.	.	.	.	.	.	.	.	.
.	.	.	.	.	.	.	.	.	8B/)	.	.	.	.	.	.	.	.	.	.	.	.	.	.	.	.	.	.	.	.	.	.	.	.	.	.	.	.
8r	.	.	8r	.	.	.	.	.	8E/J	.	8r	.	8gg#\ 8g#\	.	.	.	.	.	.	.	.	.	.	.	.	.	.	.	.	.	.	.	.	.	.	.	.
*Xrep	*	*	*	*	*	*	*	*	*	*	*	*	*	*	*	*	*	*	*	*	*	*	*	*	*	*	*	*	*	*	*	*	*	*	*	*	*
=18	=18	=18	=18	=18	=18	=18	=18	=18	=18	=18	=18	=18	=18	=18	=18	=18	=18	=18	=18	=18	=18	=18	=18	=18	=18	=18	=18	=18	=18	=18	=18	=18	=18	=18	=18	=18	=18
*rep	*	*	*	*	*	*	*	*	*	*	*	*	*	*	*	*	*	*	*	*	*	*	*	*	*	*	*	*	*	*	*	*	*	*	*	*	*
4r	.	2.ryy	8AA/	.	2.ryy	2.ryy	2.ryy	2.ryy	8r	.	4.r	.	(4bb\ 4b\	.	2.ryy	.	2.ryy	.	2.ryy	.	2.ryy	2.ryy	2.ryy	2.ryy	.	2.ryy	.	2.ryy	.	2.ryy	.	2.ryy	.	2.r	.	[4.ee\	.
.	.	.	8r	.	.	.	.	.	8E/L	.	.	.	.	.	.	.	.	.	.	.	.	.	.	.	.	.	.	.	.	.	.	.	.	.	.	.	.
8r	.	.	8r	.	.	.	.	.	(8A/J	.	.	.	8aa\ 8a\)	.	.	.	.	.	.	.	.	.	.	.	.	.	.	.	.	.	.	.	.	.	.	.	.
4E\	.	.	4r	.	.	.	.	.	8c#/L	.	4a/ 4e/ 4c#/	.	(8aa\L 8a\	.	.	.	.	.	.	.	.	.	.	.	.	.	.	.	.	.	.	.	.	.	.	4ee\]	.
.	.	.	.	.	.	.	.	.	8A/)	.	.	.	8gg#\ 8g#\)	.	.	.	.	.	.	.	.	.	.	.	.	.	.	.	.	.	.	.	.	.	.	.	.
8r	.	.	8r	.	.	.	.	.	8E/J	.	8ryy	.	8ff#\J 8f#\	.	.	.	.	.	.	.	.	.	.	.	.	.	.	.	.	.	.	.	.	.	.	8cc#\	.
*Xrep	*	*	*	*	*	*	*	*	*	*	*	*	*	*	*	*	*	*	*	*	*	*	*	*	*	*	*	*	*	*	*	*	*	*	*	*	*
=19	=19	=19	=19	=19	=19	=19	=19	=19	=19	=19	=19	=19	=19	=19	=19	=19	=19	=19	=19	=19	=19	=19	=19	=19	=19	=19	=19	=19	=19	=19	=19	=19	=19	=19	=19	=19	=19
*rep	*	*	*	*	*	*	*	*	*	*	*	*	*	*	*	*	*	*	*	*	*	*	*	*	*	*	*	*	*	*	*	*	*	*	*	*	*
4r	.	2.ryy	8GG#/	.	2.ryy	2.ryy	2.ryy	2.ryy	8r	.	4r	.	4.ff#/ 4.f#/	.	2.ryy	.	2.ryy	.	2.ryy	.	2.ryy	2.ryy	2.ryy	2.ryy	.	2.ryy	.	2.ryy	.	2.ryy	.	2.ryy	.	2.r	.	4.dd\	.
.	.	.	8EE'/L	.	.	.	.	.	8G#'/L	.	.	.	.	.	.	.	.	.	.	.	.	.	.	.	.	.	.	.	.	.	.	.	.	.	.	.	.
8r	.	.	8FF#'/J	.	.	.	.	.	8A'/J	.	8r	.	.	.	.	.	.	.	.	.	.	.	.	.	.	.	.	.	.	.	.	.	.	.	.	.	.
4E\	.	.	8GG#'/L	.	.	.	.	.	8B'/L	.	4ee/ 4b/ 4d/	.	8ee/ 8e/	.	.	.	.	.	.	.	.	.	.	.	.	.	.	.	.	.	.	.	.	.	.	4.b\	.
.	.	.	8AA'/	.	.	.	.	.	8c#'/	.	.	.	8r	.	.	.	.	.	.	.	.	.	.	.	.	.	.	.	.	.	.	.	.	.	.	.	.
8r	.	.	8BB'/J	.	.	.	.	.	8d'/J	.	8r	.	8ee/ 8e/	.	.	.	.	.	.	.	.	.	.	.	.	.	.	.	.	.	.	.	.	.	.	.	.
*Xrep	*	*	*	*	*	*	*	*	*	*	*	*	*	*	*	*	*	*	*	*	*	*	*	*	*	*	*	*	*	*	*	*	*	*	*	*	*
=20	=20	=20	=20	=20	=20	=20	=20	=20	=20	=20	=20	=20	=20	=20	=20	=20	=20	=20	=20	=20	=20	=20	=20	=20	=20	=20	=20	=20	=20	=20	=20	=20	=20	=20	=20	=20	=20
*rep	*	*	*	*	*	*	*	*	*	*	*rep	*	*	*	*	*	*	*	*	*	*	*	*	*	*	*	*	*	*	*	*	*	*	*	*	*	*
4r	.	2.ryy	2.C#/	.	2.ryy	2.ryy	2.ryy	2.ryy	8r	.	4.r	.	[4.eee\ [4.ee\	.	2.ryy	.	2.ryy	.	2.ryy	.	2.ryy	2.ryy	2.ryy	2.ryy	.	2.ryy	.	2.ryy	.	2.ryy	.	2.ryy	.	2.ryy	.	[4.a\	.
.	.	.	.	.	.	.	.	.	(8E/L	.	.	.	.	.	.	.	.	.	.	.	.	.	.	.	.	.	.	.	.	.	.	.	.	.	.	.	.
8r	.	.	.	.	.	.	.	.	8A/J	.	.	.	.	.	.	.	.	.	.	.	.	.	.	.	.	.	.	.	.	.	.	.	.	.	.	.	.
4E\	.	.	.	.	.	.	.	.	8e/L	.	4a/ 4e/ 4c#/	.	4eee\] 4ee\]	.	.	.	.	.	.	.	.	.	.	.	.	.	.	.	.	.	.	.	.	.	.	4a\]	.
.	.	.	.	.	.	.	.	.	8A/	.	.	.	.	.	.	.	.	.	.	.	.	.	.	.	.	.	.	.	.	.	.	.	.	.	.	.	.
8r	.	.	.	.	.	.	.	.	8E/J)	.	8ryy	.	8aa\ 8a\	.	.	.	.	.	.	.	.	.	.	.	.	.	.	.	.	.	.	.	.	.	.	8ee\	.
*Xrep	*	*	*	*	*	*	*	*	*	*	*Xrep	*	*	*	*	*	*	*	*	*	*	*	*	*	*	*	*	*	*	*	*	*	*	*	*	*	*
=21	=21	=21	=21	=21	=21	=21	=21	=21	=21	=21	=21	=21	=21	=21	=21	=21	=21	=21	=21	=21	=21	=21	=21	=21	=21	=21	=21	=21	=21	=21	=21	=21	=21	=21	=21	=21	=21
*rep	*	*	*	*	*	*	*	*	*	*	*rep	*	*	*	*	*	*	*	*	*	*	*	*	*	*	*	*	*	*	*	*	*	*	*	*	*	*
4r	.	2.ryy	2.BB/	.	2.ryy	2.ryy	2.ryy	2.ryy	8r	.	4r	.	4aa\ 4a\	.	2.ryy	.	2.ryy	.	2.ryy	.	2.ryy	2.ryy	2.ryy	2.ryy	.	2.ryy	.	2.ryy	.	2.ryy	.	2.ryy	.	2.ryy	.	[2.ee\	.
.	.	.	.	.	.	.	.	.	8E/L	.	.	.	.	.	.	.	.	.	.	.	.	.	.	.	.	.	.	.	.	.	.	.	.	.	.	.	.
8r	.	.	.	.	.	.	.	.	(8B/J	.	8r	.	8gg#\ 8g#\	<	.	.	.	.	.	.	.	.	.	.	.	.	.	.	.	.	.	.	.	.	.	.	.
4E\	.	.	.	.	.	.	.	.	8e/L	.	4ee/ 4b/ 4d/	.	8gg#\L 8g#\	.	.	.	.	.	.	.	.	.	.	.	.	.	.	.	.	.	.	.	.	.	.	.	.
.	.	.	.	.	.	.	.	.	8B/	.	.	.	8aa\ 8a\	.	.	.	.	.	.	.	.	.	.	.	.	.	.	.	.	.	.	.	.	.	.	.	.
8r	.	.	.	.	.	.	.	.	8E/J)	.	8r	.	8bb\J 8b\	[[	.	.	.	.	.	.	.	.	.	.	.	.	.	.	.	.	.	.	.	.	.	.	.
*Xrep	*	*	*	*	*	*	*	*	*	*	*Xrep	*	*	*	*	*	*	*	*	*	*	*	*	*	*	*	*	*	*	*	*	*	*	*	*	*	*
=22	=22	=22	=22	=22	=22	=22	=22	=22	=22	=22	=22	=22	=22	=22	=22	=22	=22	=22	=22	=22	=22	=22	=22	=22	=22	=22	=22	=22	=22	=22	=22	=22	=22	=22	=22	=22	=22
*rep	*	*	*	*	*	*	*	*	*	*	*rep	*	*	*	*	*	*	*	*	*	*	*	*	*	*	*	*	*	*	*	*	*	*	*	*	*	*
4r	.	2.ryy	2.AA/	.	2.ryy	2.ryy	2.ryy	2.ryy	8r	.	4.r	.	(8ddd\L 8dd\	>	2.ryy	.	2.ryy	.	2.ryy	.	2.ryy	2.ryy	2.ryy	2.ryy	.	2.ryy	.	2.ryy	.	2.ryy	.	2.ryy	.	2.ryy	.	4.ee\]	.
.	.	.	.	.	.	.	.	.	(8E/L	.	.	.	8ccc#\ 8cc#\	.	.	.	.	.	.	.	.	.	.	.	.	.	.	.	.	.	.	.	.	.	.	.	.
8r	.	.	.	.	.	.	.	.	8A/J	.	.	.	8bb\J 8b\	.	.	.	.	.	.	.	.	.	.	.	.	.	.	.	.	.	.	.	.	.	.	.	.
4E\	.	.	.	.	.	.	.	.	8c#/L	.	4a/ 4e/ 4c#/	.	8aa\L 8a\	.	.	.	.	.	.	.	.	.	.	.	.	.	.	.	.	.	.	.	.	.	.	4cc#\	.
.	.	.	.	.	.	.	.	.	8E/	.	.	.	8gg#\ 8g#\	]	.	.	.	.	.	.	.	.	.	.	.	.	.	.	.	.	.	.	.	.	.	.	.
8r	.	.	.	.	.	.	.	.	8A/J)	.	8ryy	.	8ff#\J 8f#\)	.	.	.	.	.	.	.	.	.	.	.	.	.	.	.	.	.	.	.	.	.	.	8a/	.
*Xrep	*	*	*	*	*	*	*	*	*	*	*Xrep	*	*	*	*	*	*	*	*	*	*	*	*	*	*	*	*	*	*	*	*	*	*	*	*	*	*
=23	=23	=23	=23	=23	=23	=23	=23	=23	=23	=23	=23	=23	=23	=23	=23	=23	=23	=23	=23	=23	=23	=23	=23	=23	=23	=23	=23	=23	=23	=23	=23	=23	=23	=23	=23	=23	=23
*rep	*	*	*	*	*	*	*	*	*	*	*rep	*	*	*	*	*	*	*	*	*	*	*	*	*	*	*	*	*	*	*	*	*	*	*	*	*	*
4r	.	2.ryy	(4GG#/	.	2.ryy	2.ryy	2.ryy	2.ryy	8r	.	4r	.	(4.bb\ (4.b\	.	2.ryy	.	2.ryy	.	2.ryy	.	2.ryy	2.ryy	2.ryy	2.ryy	.	2.ryy	.	2.ryy	.	2.ryy	.	2.ryy	.	2.ryy	.	4.b/	.
.	.	.	.	.	.	.	.	.	(8E/L	.	.	.	.	.	.	.	.	.	.	.	.	.	.	.	.	.	.	.	.	.	.	.	.	.	.	.	.
8r	.	.	8BB/	.	.	.	.	.	8B/J	.	8r	.	.	.	.	.	.	.	.	.	.	.	.	.	.	.	.	.	.	.	.	.	.	.	.	.	.
4E\	.	.	4E\	.	.	.	.	.	8G#/L	.	4ee/ 4b/ 4d/	.	4ee\ 4e\))	.	.	.	.	.	.	.	.	.	.	.	.	.	.	.	.	.	.	.	.	.	.	4ee/	.
.	.	.	.	.	.	.	.	.	8B/	.	.	.	.	.	.	.	.	.	.	.	.	.	.	.	.	.	.	.	.	.	.	.	.	.	.	.	.
8r	.	.	8D\)	.	.	.	.	.	8E/J)	.	8r	.	8r	.	.	.	.	.	.	.	.	.	.	.	.	.	.	.	.	.	.	.	.	.	.	8r	.
*Xrep	*	*	*	*	*	*	*	*	*	*	*Xrep	*	*	*	*	*	*	*	*	*	*	*	*	*	*	*	*	*	*	*	*	*	*	*	*	*	*
!!LO:PB:g=original
=24	=24	=24	=24	=24	=24	=24	=24	=24	=24	=24	=24	=24	=24	=24	=24	=24	=24	=24	=24	=24	=24	=24	=24	=24	=24	=24	=24	=24	=24	=24	=24	=24	=24	=24	=24	=24	=24
!	!	!	!	!LO:DY:rj	!	!	!	!	!	!LO:DY:rj	!	!LO:DY:rj	!	!LO:DY:rj	!	!	!	!	!	!	!	!	!	!	!	!	!	!	!	!	!	!	!	!	!	!LO:TX:a:t=a=:color=red	!
4C#/	.	2.ryy	4C#^/	p	2.ryy	2.ryy	2.ryy	2.ryy	(8A^/L	p	4a/ 4e^/	p	[4ee^\	p	2.ryy	.	2.ryy	.	2.ryy	.	2.ryy	2.ryy	2.ryy	2.ryy	.	2.ryy	.	2.ryy	.	2.ryy	.	2.ryy	.	2.ryy	.	2.ryy	.
.	.	.	.	.	.	.	.	.	8e/)	.	.	.	.	.	.	.	.	.	.	.	.	.	.	.	.	.	.	.	.	.	.	.	.	.	.	.	.
8r	.	.	16r	.	.	.	.	.	8A/J	.	16r	.	16ee\LL]	.	.	.	.	.	.	.	.	.	.	.	.	.	.	.	.	.	.	.	.	.	.	.	.
.	.	.	16C#/	.	.	.	.	.	.	.	16e/	.	16a\JJ|	.	.	.	.	.	.	.	.	.	.	.	.	.	.	.	.	.	.	.	.	.	.	.	.
4C#/	.	.	4C#^/	.	.	.	.	.	(8A/L	.	4e^/	.	4a^\	.	.	.	.	.	.	.	.	.	.	.	.	.	.	.	.	.	.	.	.	.	.	.	.
.	.	.	.	.	.	.	.	.	8e/)	.	.	.	.	.	.	.	.	.	.	.	.	.	.	.	.	.	.	.	.	.	.	.	.	.	.	.	.
8r	.	.	8r	.	.	.	.	.	8A/J	.	8r	.	8r	.	.	.	.	.	.	.	.	.	.	.	.	.	.	.	.	.	.	.	.	.	.	.	.
=25	=25	=25	=25	=25	=25	=25	=25	=25	=25	=25	=25	=25	=25	=25	=25	=25	=25	=25	=25	=25	=25	=25	=25	=25	=25	=25	=25	=25	=25	=25	=25	=25	=25	=25	=25	=25	=25
4D\	.	2.ryy	4D^/	.	2.ryy	2.ryy	2.ryy	2.ryy	(8A^/L	.	4a/ 4d/	.	[4ff#\	.	2.ryy	.	2.ryy	.	2.ryy	.	2.ryy	2.ryy	2.ryy	2.ryy	.	2.ryy	.	2.ryy	.	2.ryy	.	2.ryy	.	2.ryy	.	2.r	.
.	.	.	.	.	.	.	.	.	8f#/)	.	.	.	.	.	.	.	.	.	.	.	.	.	.	.	.	.	.	.	.	.	.	.	.	.	.	.	.
8r	.	.	16r	.	.	.	.	.	8A/J	.	16r	.	16ff#\LL]	.	.	.	.	.	.	.	.	.	.	.	.	.	.	.	.	.	.	.	.	.	.	.	.
.	.	.	16D/	.	.	.	.	.	.	.	16f#'/	.	16b\JJ|	.	.	.	.	.	.	.	.	.	.	.	.	.	.	.	.	.	.	.	.	.	.	.	.
4D\	.	.	4D^/	.	.	.	.	.	(8B/L	.	4f#^/	.	4b^\	.	.	.	.	.	.	.	.	.	.	.	.	.	.	.	.	.	.	.	.	.	.	.	.
.	.	.	.	.	.	.	.	.	8f#/)	.	.	.	.	.	.	.	.	.	.	.	.	.	.	.	.	.	.	.	.	.	.	.	.	.	.	.	.
8r	.	.	8r	.	.	.	.	.	8B/J	.	8r	.	8r	.	.	.	.	.	.	.	.	.	.	.	.	.	.	.	.	.	.	.	.	.	.	.	.
=26	=26	=26	=26	=26	=26	=26	=26	=26	=26	=26	=26	=26	=26	=26	=26	=26	=26	=26	=26	=26	=26	=26	=26	=26	=26	=26	=26	=26	=26	=26	=26	=26	=26	=26	=26	=26	=26
*	*	*	*	*	*	*	*	*	*	*	*	*	*	*	*	*	*	*	*	*	*	*	*	*	*	*	*	*^	*	*^	*	*	*	*	*	*	*
*	*	*	*	*	*	*	*	*	*	*	*	*	*	*	*	*	*	*	*	*	*	*	*	*	*	*	*	*	*	*	*2\right	*	*	*	*	*2\right	*	*	*
!	!	!	!	!	!	!	!	!	!	!	!	!LO:DY:rj	!	!LO:DY:rj	!	!	!	!	!	!	!	!	!	!	!	!	!	!	!	!LO:DY:rj	!LO:TX:a:t=Solo.\nbrillante.	!	!LO:DY:rj	!	!	!LO:TX:a:t=Solo\nbrillante	!LO:DY:rj	!	!LO:DY:a:rj
4C#/	.	2.ryy	(4.C#^/	<	2.ryy	2.ryy	2.ryy	2.ryy	4.c#/	p <	(8g#/L	p	(4.ee#X^\	p	2.ryy	.	2.ryy	.	2.ryy	.	2.ryy	2.ryy	2.ryy	2.r	.	2.ryy	.	[2.G#/	(4.C#\	pp <	[2.gg#tt\	(4.e#X^\	pp <	2.r	.	2.gg#^<tt\	f	(4.cc#\	p <
.	.	.	.	.	.	.	.	.	.	.	8cc#/	.	.	.	.	.	.	.	.	.	.	.	.	.	.	.	.	.	.	.	.	.	.	.	.	.	.	.	.
8r	.	.	.	.	.	.	.	.	.	.	8g#/J	.	.	.	.	.	.	.	.	.	.	.	.	.	.	.	.	.	.	.	.	.	.	.	.	.	.	.	.
4GG#/	.	.	4.GG#^/	.	.	.	.	.	4.B#X/	.	8f#/L	<	4.dd#X^\	<	.	.	.	.	.	.	.	.	.	.	.	.	.	.	4.D#X\	.	.	4.d#X\	.	.	.	.	.	4.b#X\	.
.	.	.	.	.	.	.	.	.	.	.	8g#/	.	.	.	.	.	.	.	.	.	.	.	.	.	.	.	.	.	.	.	.	.	.	.	.	.	.	.	.
8r	.	.	.	.	.	.	.	.	.	.	8f#/J)	.	.	.	.	.	.	.	.	.	.	.	.	.	.	.	.	.	.	.	.	.	.	.	.	.	.	.	.
=27	=27	=27	=27	=27	=27	=27	=27	=27	=27	=27	=27	=27	=27	=27	=27	=27	=27	=27	=27	=27	=27	=27	=27	=27	=27	=27	=27	=27	=27	=27	=27	=27	=27	=27	=27	=27	=27	=27	=27
4C#/	.	2.ryy	4.C#^/	.	2.ryy	2.ryy	2.ryy	2.ryy	(8c#/L	.	4.e#X/	.	4.cc#^\	.	2.ryy	.	2.ryy	.	2.ryy	.	2.ryy	2.ryy	2.ryy	2.r	.	2.ryy	.	4.G#/]	4.E#X\	.	4.gg#tt\]	4.c#\	.	2.r	.	4.gg#tt\	.	2.g#/	[[
.	.	.	.	.	.	.	.	.	8G#/	.	.	.	.	.	.	.	.	.	.	.	.	.	.	.	.	.	.	.	.	.	.	.	.	.	.	.	.	.	.
8r	.	.	.	.	.	.	.	.	8c#/J	.	.	.	.	.	.	.	.	.	.	.	.	.	.	.	.	.	.	.	.	.	.	.	.	.	.	.	.	.	.
!	!	!	!	!	!	!	!	!	!	!	!	!	!	!	!	!	!	!	!	!	!	!	!	!	!	!	!	!	!	!	!LO:TUP:a	!	!	!	!	!LO:TUP:a:problem:klamra łukowa z łukiem	!	!	!
4En\	.	.	4.En^\)	.	.	.	.	.	8dn/L	.	4.en/	.	4.b^\)	.	.	.	.	.	.	.	.	.	.	.	.	.	.	4.B/	4.En\	.	24gg#\LL	4.d\)	[	.	.	24gg#\LL	.	.	.
.	.	.	.	.	.	.	.	.	.	.	.	.	.	.	.	.	.	.	.	.	.	.	.	.	.	.	.	.	.	.	24aa\	.	.	.	.	24aa\	.	.	.
.	.	.	.	.	.	.	.	.	.	.	.	.	.	.	.	.	.	.	.	.	.	.	.	.	.	.	.	.	.	.	24gg#\JJ	.	.	.	.	24gg#\JJ	.	.	.
.	.	.	.	.	.	.	.	.	8B/	.	.	.	.	.	.	.	.	.	.	.	.	.	.	.	.	.	.	.	.	.	8ff#\L	.	.	.	.	8ff#'\L	.	.	.
8r	.	.	.	.	.	.	.	.	8e/J)	.	.	.	.	.	.	.	.	.	.	.	.	.	.	.	.	.	.	.	.	.	8ee\J	.	.	.	.	(8ee\J	.	.	.
=28	=28	=28	=28	=28	=28	=28	=28	=28	=28	=28	=28	=28	=28	=28	=28	=28	=28	=28	=28	=28	=28	=28	=28	=28	=28	=28	=28	=28	=28	=28	=28	=28	=28	=28	=28	=28	=28	=28	=28
!LO:TX:a:t=arco	!	!	!	!	!	!	!	!	!	!	!	!LO:DY:rj	!	!	!	!	!	!	!	!	!	!	!	!	!LO:DY:rj	!	!LO:DY:rj	!	!	!	!	!	!LO:DY:rj	!	!	!	!	!	!
8AA/	sf	2.ryy	8AA/	sf	2.ryy	2.ryy	2.ryy	2.ryy	8r	.	8cc#/ 8e/	sf	8aa\ 8a\	sf	2.ryy	.	2.ryy	.	2.ryy	.	2.ryy	2.ryy	2.ryy	8e\ 8A\	sf	8a/ 8A/	sf	8e/	8AA\)	[ sf	8aa'\	8c#/	sf	8cc#/ 8a/	sf	8aa\)	.	8a/)	.
8r	.	.	8r	.	.	.	.	.	8E/L	.	8r	.	8r	.	.	.	.	.	.	.	.	.	.	8r	.	8r	.	8r	8ryy	.	8r	8ryy	.	8r	.	8r	.	8r	.
8r	.	.	8r	.	.	.	.	.	(8A/J	.	8c#/	.	8a'/	.	.	.	.	.	.	.	.	.	.	8r	.	8r	.	8r	8ryy	.	8cc#/	8a\	p	8r	.	8r	.	8r	.
!LO:TX:b:t=pizzi	!LO:DY:rj	!	!LO:TX:b:t=pizzi	!LO:DY:rj	!	!	!	!	!	!	!	!LO:HP:a	!	!LO:HP:a	!	!	!	!	!	!	!	!	!	!	!	!	!	!	!	!	!	!	!	!	!	!	!	!	!
4A\	p	.	4A\	p	.	.	.	.	8c#/L	.	8c#/L	<	(8a/L	<	.	.	.	.	.	.	.	.	.	4r	.	4r	.	4r	4ryy	.	(8cc#/L	8a\L	<	4r	.	4r	.	4r	.
.	.	.	.	.	.	.	.	.	8e/)	.	8d/	.	8b/)	.	.	.	.	.	.	.	.	.	.	.	.	.	.	.	.	.	8dd/	8b\	.	.	.	.	.	.	.
8r	.	.	8r	.	.	.	.	.	8A'/J	.	8e/J	[[	8cc#'/J	[[	.	.	.	.	.	.	.	.	.	8r	.	8r	.	8r	8ryy	.	8ee/J	8cc#\J	[	8r	.	8r	.	8r	.
*	*	*	*	*	*	*	*	*	*	*	*	*	*	*	*	*	*	*	*	*	*	*	*	*	*	*	*	*v	*v	*	*	*	*	*	*	*	*	*	*
=29	=29	=29	=29	=29	=29	=29	=29	=29	=29	=29	=29	=29	=29	=29	=29	=29	=29	=29	=29	=29	=29	=29	=29	=29	=29	=29	=29	=29	=29	=29	=29	=29	=29	=29	=29	=29	=29	=29
!	!	!	!	!	!	!	!	!	!	!	!	!LO:HP:a	!	!LO:HP:a	!	!	!	!	!	!	!	!	!	!	!	!	!	!	!	!	!	!	!	!	!	!	!	!
4BB/	.	2.ryy	4BB/	.	2.ryy	2.ryy	2.ryy	2.ryy	8r	.	4.g#/	>	4.ee\	>	2.ryy	.	2.ryy	.	2.ryy	.	2.ryy	2.ryy	2.ryy	2.r	.	2.r	.	2.r	.	(4.gg#/	(4.ee\	>	2.r	.	2.r	.	2.r	.
.	.	.	.	.	.	.	.	.	(8F#/L	.	.	.	.	.	.	.	.	.	.	.	.	.	.	.	.	.	.	.	.	.	.	.	.	.	.	.	.	.
8r	.	.	8r	.	.	.	.	.	8B/J	.	.	.	.	.	.	.	.	.	.	.	.	.	.	.	.	.	.	.	.	.	.	.	.	.	.	.	.	.
4r	.	.	4A\	.	.	.	.	.	8d\L	.	8f#/	]	8dd\	]	.	.	.	.	.	.	.	.	.	.	.	.	.	.	.	8ff#/))	8dd\)	]	.	.	.	.	.	.
.	.	.	.	.	.	.	.	.	8f#\)	.	8r	.	8r	.	.	.	.	.	.	.	.	.	.	.	.	.	.	.	.	8r	8ryy	.	.	.	.	.	.	.
!	!	!	!	!	!	!	!	!	!	!	!	!	!LO:TX:a:t==B:color=red	!	!	!	!	!	!	!	!	!	!	!	!	!	!	!	!	!	!	!	!	!	!	!	!	!
8r	.	.	8r	.	.	.	.	.	8d'\J	.	8d/	.	8b\	.	.	.	.	.	.	.	.	.	.	.	.	.	.	.	.	8ee/	8b\	.	.	.	.	.	.	.
=30	=30	=30	=30	=30	=30	=30	=30	=30	=30	=30	=30	=30	=30	=30	=30	=30	=30	=30	=30	=30	=30	=30	=30	=30	=30	=30	=30	=30	=30	=30	=30	=30	=30	=30	=30	=30	=30	=30
!	!	!	!	!	!	!	!	!	!	!	!	!	!	!	!	!	!	!	!	!	!	!	!	!	!	!	!	!	!	!	!	!	!	!	!	!	!LO:TX:a:t==B:color=red	!
4E\	.	2.ryy	8r	.	2.ryy	2.ryy	2.ryy	2.ryy	8d\	.	8c#/	.	8a/	.	2.ryy	.	2.ryy	.	2.ryy	.	2.ryy	2.ryy	2.ryy	2.r	.	2.r	.	2.r	.	4cc#/	4a\	.	2.r	.	2.r	.	2.r	.
!	!	!	!LO:TX:b:t=arco	!	!	!	!	!	!	!	!	!	!	!	!	!	!	!	!	!	!	!	!	!	!	!	!	!	!	!	!	!	!	!	!	!	!	!
.	.	.	(8c#\L	.	.	.	.	.	8r	.	8r	.	(8e/L	.	.	.	.	.	.	.	.	.	.	.	.	.	.	.	.	.	.	.	.	.	.	.	.	.
8r	.	.	8A\J	.	.	.	.	.	8r	.	8r	.	8a/J	.	.	.	.	.	.	.	.	.	.	.	.	.	.	.	.	8r	8ryy	.	.	.	.	.	.	.
4E\	.	.	8E\L	.	.	.	.	.	8c#\	.	8e/	.	8cc#/L	.	.	.	.	.	.	.	.	.	.	.	.	.	.	.	.	(<4ff#/	(>4f#^>\	.	.	.	.	.	.	.
.	.	.	8C#\	.	.	.	.	.	8r	.	8r	.	8a/	.	.	.	.	.	.	.	.	.	.	.	.	.	.	.	.	.	.	.	.	.	.	.	.	.
8r	.	.	8AA\J)	.	.	.	.	.	8r	.	8r	.	8cc#/J)	.	.	.	.	.	.	.	.	.	.	.	.	.	.	.	.	8ee/)	8e\)	.	.	.	.	.	.	.
!!LO:PB:g=original
=31	=31	=31	=31	=31	=31	=31	=31	=31	=31	=31	=31	=31	=31	=31	=31	=31	=31	=31	=31	=31	=31	=31	=31	=31	=31	=31	=31	=31	=31	=31	=31	=31	=31	=31	=31	=31	=31	=31
*rep	*	*	*	*	*	*	*	*	*	*	*	*	*	*	*	*	*	*	*	*	*	*	*	*	*	*	*	*	*	*	*	*	*	*	*	*	*	*
4E\	.	2.ryy	8r	.	2.ryy	2.ryy	2.ryy	2.ryy	8e\	.	8r	.	8ee\	.	2.r	.	2.r	.	2.r	.	2.ryy	2.ryy	2.ryy	2.r	.	2.r	.	2.r	.	8ee/	8e\	.	2.ryy	.	2.ryy	.	2.ryy	.
.	.	.	(8G#\L	.	.	.	.	.	8rF	.	(8e/L	.	8r	.	.	.	.	.	.	.	.	.	.	.	.	.	.	.	.	8r	8ryy	.	.	.	.	.	.	.
8r	.	.	8F#\J	.	.	.	.	.	8r	.	8f#/J	.	8r	.	.	.	.	.	.	.	.	.	.	.	.	.	.	.	.	8r	8ryy	.	.	.	.	.	.	.
4E\	.	.	8E\L	.	.	.	.	.	8B/	.	8g#/L	.	8ee\	.	.	.	.	.	.	.	.	.	.	.	.	.	.	.	.	8ee\ 8e\	4.ryy	.	.	.	.	.	.	.
.	.	.	8D#X\	.	.	.	.	.	8r	.	8b/	.	8r	.	.	.	.	.	.	.	.	.	.	.	.	.	.	.	.	8r	.	.	.	.	.	.	.	.
8r	.	.	8Dn\J)	.	.	.	.	.	8r	.	8ee/J)	.	8r	.	.	.	.	.	.	.	.	.	.	.	.	.	.	.	.	8r	.	.	.	.	.	.	.	.
*Xrep	*	*	*	*	*	*	*	*	*	*	*	*	*	*	*	*	*	*	*	*	*	*	*	*	*	*	*	*	*	*	*	*	*	*	*	*	*	*
*	*	*	*	*	*	*	*	*	*	*	*	*	*	*	*	*	*	*	*	*	*	*	*	*	*	*	*	*	*	*v	*v	*	*	*	*	*	*	*
=32	=32	=32	=32	=32	=32	=32	=32	=32	=32	=32	=32	=32	=32	=32	=32	=32	=32	=32	=32	=32	=32	=32	=32	=32	=32	=32	=32	=32	=32	=32	=32	=32	=32	=32	=32	=32	=32
!	!	!	!	!	!	!	!	!	!	!	!	!	!	!	!	!	!	!	!	!	!	!	!	!	!	!	!	!	!	!	!	!	!	!	!	!LO:TX:t=P:problem:powtórka taktów 24-29	!
!LO:TX:t=P:problem:powtórka taktów 24-29	!	!	!LO:TX:t=P:problem:powtórka taktów 24-29	!	!	!	!	!	!LO:TX:t=P:problem:powtórka taktów 24-29	!	!LO:TX:t=P:problem:powtórka taktów 24-29	!	!LO:TX:t=P:problem:powtórka taktów 24-29	!	!LO:TX:t=P:problem:powtórka taktów 24-29	!	!LO:TX:t=P:problem:powtórka taktów 24-29	!	!LO:TX:t=P:problem:powtórka taktów 24-29	!	!	!	!	!LO:TX:t=P:problem:powtórka taktów 24-29	!	!LO:TX:t=P:problem:powtórka taktów 24-29	!	!LO:TX:t=P:problem:powtórka taktów 24-29	!	!LO:TX:t=P:problem:powtórka taktów 24-29	!	!LO:TX:t=P:problem:powtórka taktów 24-29	!	!LO:TX:t=P:problem:powtórka taktów 24-29	!	!LO:TX:a:t=a=:color=red	!
4C#/yy	.	2.ryy	4C#^/yy	pyy	2.ryy	2.ryy	2.ryy	2.ryy	(yy8A^/Lyy	pyy	4a/ 4e^/	p	[4ee^\	.	2.ryy	.	2.ryy	.	2.ryy	.	2.ryy	2.ryy	2.ryy	2.ryy	.	2.ryy	.	2.ryy	.	2.ryy	.	2.ryy	.	2.ryy	.	2.ryy	.
.	.	.	.	.	.	.	.	.	8e/)yy	.	.	.	.	.	.	.	.	.	.	.	.	.	.	.	.	.	.	.	.	.	.	.	.	.	.	.	.
8ryy	.	.	16ryy	.	.	.	.	.	8A/Jyy	.	16r	.	16ee\LL]	.	.	.	.	.	.	.	.	.	.	.	.	.	.	.	.	.	.	.	.	.	.	.	.
.	.	.	16C#/yy	.	.	.	.	.	.	.	16e/	.	16a\JJ|	.	.	.	.	.	.	.	.	.	.	.	.	.	.	.	.	.	.	.	.	.	.	.	.
4C#/yy	.	.	4C#^/yy	.	.	.	.	.	(yy8A/Lyy	.	4e^/	.	4a^\	.	.	.	.	.	.	.	.	.	.	.	.	.	.	.	.	.	.	.	.	.	.	.	.
.	.	.	.	.	.	.	.	.	8e/)yy	.	.	.	.	.	.	.	.	.	.	.	.	.	.	.	.	.	.	.	.	.	.	.	.	.	.	.	.
8ryy	.	.	8ryy	.	.	.	.	.	8A/Jyy	.	8r	.	8r	.	.	.	.	.	.	.	.	.	.	.	.	.	.	.	.	.	.	.	.	.	.	.	.
=33	=33	=33	=33	=33	=33	=33	=33	=33	=33	=33	=33	=33	=33	=33	=33	=33	=33	=33	=33	=33	=33	=33	=33	=33	=33	=33	=33	=33	=33	=33	=33	=33	=33	=33	=33	=33	=33
4D\yy	.	2.ryy	4D^/yy	.	2.ryy	2.ryy	2.ryy	2.ryy	(yy8A^/Lyy	.	4ayy/ 4d/yy	.	[yy4ff#\yy	.	2.ryy	.	2.ryy	.	2.ryy	.	2.ryy	2.ryy	2.ryy	2.ryy	.	2.ryy	.	2.ryy	.	2.ryy	.	2.ryy	.	2.ryy	.	2.r	.
.	.	.	.	.	.	.	.	.	8f#/)yy	.	.	.	.	.	.	.	.	.	.	.	.	.	.	.	.	.	.	.	.	.	.	.	.	.	.	.	.
8ryy	.	.	16ryy	.	.	.	.	.	8A/Jyy	.	16ryy	.	16ff#\LL]yy	.	.	.	.	.	.	.	.	.	.	.	.	.	.	.	.	.	.	.	.	.	.	.	.
.	.	.	16D/yy	.	.	.	.	.	.	.	16f#'/yy	.	16b\JJyy|	.	.	.	.	.	.	.	.	.	.	.	.	.	.	.	.	.	.	.	.	.	.	.	.
4D\yy	.	.	4D^/yy	.	.	.	.	.	(yy8B/Lyy	.	4f#^/yy	.	4b^\yy	.	.	.	.	.	.	.	.	.	.	.	.	.	.	.	.	.	.	.	.	.	.	.	.
.	.	.	.	.	.	.	.	.	8f#/)yy	.	.	.	.	.	.	.	.	.	.	.	.	.	.	.	.	.	.	.	.	.	.	.	.	.	.	.	.
8ryy	.	.	8ryy	.	.	.	.	.	8B/Jyy	.	8ryy	.	8ryy	.	.	.	.	.	.	.	.	.	.	.	.	.	.	.	.	.	.	.	.	.	.	.	.
=34	=34	=34	=34	=34	=34	=34	=34	=34	=34	=34	=34	=34	=34	=34	=34	=34	=34	=34	=34	=34	=34	=34	=34	=34	=34	=34	=34	=34	=34	=34	=34	=34	=34	=34	=34	=34	=34
*	*	*	*	*	*	*	*	*	*	*	*	*	*	*	*	*	*	*	*	*	*	*	*	*	*	*	*	*^	*	*^	*	*	*	*	*	*	*
!	!	!	!	!	!	!	!	!	!	!	!	!	!	!	!	!	!	!	!	!	!	!	!	!	!	!	!	!	!	!	!LO:TX:a:t=Solo.\nbrillante.	!	!	!	!	!LO:TX:a:t=Solo\nbrillante	!LO:DY:rj	!	!LO:DY:a:rj
4C#/yy	.	2.ryy	(yy4.C#^/yy	<yy	2.ryy	2.ryy	2.ryy	2.ryy	4.c#/yy	pyy <	(yy8g#/Lyy	p <yy	(yy4.ee#X^\yy	p <yy	2.ryy	.	2.ryy	.	2.ryy	.	2.ryy	2.ryy	2.ryy	2.r	.	2.ryy	.	[2.G#/	(4.C#\	<	[2.gg#t\	(4.e#X^\	pp <	2.r	.	2.gg#^<tt\	f	(4.cc#\	p <
.	.	.	.	.	.	.	.	.	.	.	8cc#/yy	.	.	.	.	.	.	.	.	.	.	.	.	.	.	.	.	.	.	.	.	.	.	.	.	.	.	.	.
8ryy	.	.	.	.	.	.	.	.	.	.	8g#/Jyy	.	.	.	.	.	.	.	.	.	.	.	.	.	.	.	.	.	.	.	.	.	.	.	.	.	.	.	.
4GG#/yy	.	.	4.GG#^/yy	.	.	.	.	.	4.B#X/yy	.	8f#/Lyy	.	4.dd#X^\yy	.	.	.	.	.	.	.	.	.	.	.	.	.	.	.	4.D#X\	.	.	4.d#X\	.	.	.	.	.	4.b#X\	.
.	.	.	.	.	.	.	.	.	.	.	8g#/yy	.	.	.	.	.	.	.	.	.	.	.	.	.	.	.	.	.	.	.	.	.	.	.	.	.	.	.	.
8ryy	.	.	.	.	.	.	.	.	.	.	8f#/J)yy	.	.	.	.	.	.	.	.	.	.	.	.	.	.	.	.	.	.	.	.	.	.	.	.	.	.	.	.
=35	=35	=35	=35	=35	=35	=35	=35	=35	=35	=35	=35	=35	=35	=35	=35	=35	=35	=35	=35	=35	=35	=35	=35	=35	=35	=35	=35	=35	=35	=35	=35	=35	=35	=35	=35	=35	=35	=35	=35
4C#/yy	.	2.ryy	4.C#^/yy	.	2.ryy	2.ryy	2.ryy	2.ryy	(yy8c#/Lyy	.	4.e#X/yy	.	4.cc#^\yy	.	2.ryy	.	2.ryy	.	2.ryy	.	2.ryy	2.ryy	2.ryy	2.r	.	2.ryy	.	4.G#/]	4.E#X\	.	4.gg#\]	4.c#\	.	2.r	.	4.gg#tt\	.	2.g#/	[[
.	.	.	.	.	.	.	.	.	8G#/yy	.	.	.	.	.	.	.	.	.	.	.	.	.	.	.	.	.	.	.	.	.	.	.	.	.	.	.	.	.	.
8ryy	.	.	.	.	.	.	.	.	8c#/Jyy	.	.	.	.	.	.	.	.	.	.	.	.	.	.	.	.	.	.	.	.	.	.	.	.	.	.	.	.	.	.
!	!	!	!	!	!	!	!	!	!	!	!	!	!	!	!	!	!	!	!	!	!	!	!	!	!	!	!	!	!	!	!	!	!	!	!	!LO:TUP:a:problem:klamra łukowa z łukiem	!	!	!
4En\yy	.	.	4.En^\)yy	[[	.	.	.	.	8dn/Lyy	.	4.en/yy	[[	4.b^\)yy	[[	.	.	.	.	.	.	.	.	.	.	.	.	.	4.B/	4.En\	.	24gg#\LL	4.d\)	[	.	.	24gg#\LL	.	.	.
.	.	.	.	.	.	.	.	.	.	.	.	.	.	.	.	.	.	.	.	.	.	.	.	.	.	.	.	.	.	.	24aa\	.	.	.	.	24aa\	.	.	.
.	.	.	.	.	.	.	.	.	.	.	.	.	.	.	.	.	.	.	.	.	.	.	.	.	.	.	.	.	.	.	24gg#\JJ	.	.	.	.	24gg#\JJ	.	.	.
.	.	.	.	.	.	.	.	.	8B/yy	.	.	.	.	.	.	.	.	.	.	.	.	.	.	.	.	.	.	.	.	.	8ff#\L	.	.	.	.	8ff#'\L	.	.	.
8ryy	.	.	.	.	.	.	.	.	8e/J)yy	[[	.	.	.	.	.	.	.	.	.	.	.	.	.	.	.	.	.	.	.	.	8ee\J	.	.	.	.	(8ee\J	.	.	.
=36	=36	=36	=36	=36	=36	=36	=36	=36	=36	=36	=36	=36	=36	=36	=36	=36	=36	=36	=36	=36	=36	=36	=36	=36	=36	=36	=36	=36	=36	=36	=36	=36	=36	=36	=36	=36	=36	=36	=36
!LO:TX:a:t=arco	!	!	!	!	!	!	!	!	!	!	!	!	!	!	!	!	!	!	!	!	!	!	!	!	!LO:DY:rj	!	!LO:DY:rj	!	!	!	!	!	!	!	!	!	!	!	!
8AA/yy	sfyy	2.ryy	8AA/yy	sfyy	2.ryy	2.ryy	2.ryy	2.ryy	8ryy	.	8cc#yy/ 8e/yy	.	8aayy\ 8a\yy	sfyy	2.ryy	.	2.ryy	.	2.ryy	.	2.ryy	2.ryy	2.ryy	8e\ 8A\	sf	8a/ 8A/	sf	8e/	8AA\)	[ sf	8aa'\	8c#/	sf	8cc#/ 8a/	sf	8aa\)	.	8a/)	.
8ryy	.	.	8ryy	.	.	.	.	.	8E/Lyy	.	8ryy	.	8ryy	.	.	.	.	.	.	.	.	.	.	8r	.	8r	.	8r	8ryy	.	8r	8ryy	.	8r	.	8r	.	8r	.
8ryy	.	.	8ryy	.	.	.	.	.	(yy8A/Jyy	.	8c#/yy	.	8a'/yy	.	.	.	.	.	.	.	.	.	.	8r	.	8r	.	8r	8ryy	.	8cc#/	8a\	p	8r	.	8r	.	8r	.
!LO:TX:b:t=pizzi	!	!	!LO:TX:b:t=pizzi	!	!	!	!	!	!	!	!	!	!	!LO:DY:a	!	!	!	!	!	!	!	!	!	!	!	!	!	!	!	!	!	!	!	!	!	!	!	!	!
4A\yy	pyy	.	4A\yy	pyy	.	.	.	.	8c#/Lyy	.	8c#/Lyy	.	(yy8a/Lyy	<yy	.	.	.	.	.	.	.	.	.	4r	.	4r	.	4r	4ryy	.	(8cc#/L	8a\L	<	4r	.	4r	.	4r	.
.	.	.	.	.	.	.	.	.	8e/)yy	.	8d/yy	.	8b/)yy	.	.	.	.	.	.	.	.	.	.	.	.	.	.	.	.	.	8dd/	8b\	.	.	.	.	.	.	.
8ryy	.	.	8ryy	.	.	.	.	.	8A'/Jyy	.	8e/Jyy	.	8cc#'/Jyy	[[yy	.	.	.	.	.	.	.	.	.	8r	.	8r	.	8r	8ryy	.	8ee/J	8cc#\J	.	8r	.	8r	.	8r	.
*	*	*	*	*	*	*	*	*	*	*	*	*	*	*	*	*	*	*	*	*	*	*	*	*	*	*	*	*v	*v	*	*	*	*	*	*	*	*	*	*
=37	=37	=37	=37	=37	=37	=37	=37	=37	=37	=37	=37	=37	=37	=37	=37	=37	=37	=37	=37	=37	=37	=37	=37	=37	=37	=37	=37	=37	=37	=37	=37	=37	=37	=37	=37	=37	=37	=37
!	!	!	!	!	!	!	!	!	!	!	!	!	!	!LO:DY:a	!	!	!	!	!	!	!	!	!	!	!	!	!	!	!	!	!	!	!	!	!	!	!	!
4BB/yy	.	2.ryy	4BB/yy	.	2.ryy	2.ryy	2.ryy	2.ryy	8ryy	.	4.g#/yy	.	4.ee\yy	>yy	2.ryy	.	2.ryy	.	2.ryy	.	2.ryy	2.ryy	2.ryy	2.r	.	2.r	.	2.r	.	(4.gg#/	(4.ee\	[ >	2.r	.	2.r	.	2.r	.
.	.	.	.	.	.	.	.	.	(yy8F#/Lyy	.	.	.	.	.	.	.	.	.	.	.	.	.	.	.	.	.	.	.	.	.	.	.	.	.	.	.	.	.
8ryy	.	.	8ryy	.	.	.	.	.	8B/Jyy	.	.	.	.	.	.	.	.	.	.	.	.	.	.	.	.	.	.	.	.	.	.	.	.	.	.	.	.	.
4ryy	.	.	4A\yy	.	.	.	.	.	8d\Lyy	.	8f#/yy	.	8dd\yy	]	.	.	.	.	.	.	.	.	.	.	.	.	.	.	.	8ff#/))	8dd\)	]	.	.	.	.	.	.
.	.	.	.	.	.	.	.	.	8f#\)yy	.	8ryy	.	8ryy	.	.	.	.	.	.	.	.	.	.	.	.	.	.	.	.	8r	8ryy	.	.	.	.	.	.	.
!	!	!	!	!	!	!	!	!	!	!	!	!	!LO:TX:a:t==B	!	!	!	!	!	!	!	!	!	!	!	!	!	!	!	!	!	!	!	!	!	!	!	!	!
8ryy	.	.	8ryy	.	.	.	.	.	8d'\Jyy	.	8d/yy	.	8b\yy	.	.	.	.	.	.	.	.	.	.	.	.	.	.	.	.	8ee/	8b\	.	.	.	.	.	.	.
=38	=38	=38	=38	=38	=38	=38	=38	=38	=38	=38	=38	=38	=38	=38	=38	=38	=38	=38	=38	=38	=38	=38	=38	=38	=38	=38	=38	=38	=38	=38	=38	=38	=38	=38	=38	=38	=38	=38
4E\	sf	2.ryy	8r	.	2.ryy	2.ryy	2.ryy	2.ryy	8E/	.	8c#/L	.	8a/	.	2.r	.	2.r	.	2.r	.	2.ryy	2.ryy	2.ryy	2.r	.	2.r	.	2.r	.	4cc#/	4a\	.	2.r	.	2.r	.	2.r	.
.	.	.	8AA/L	<	.	.	.	.	8A/L	<	8A/	<	8a\L	<	.	.	.	.	.	.	.	.	.	.	.	.	.	.	.	.	.	.	.	.	.	.	.	.
8r	.	.	8C#/J	.	.	.	.	.	8C#/J	.	8c#/J	.	8cc#\J	.	.	.	.	.	.	.	.	.	.	.	.	.	.	.	.	8r	8ryy	.	.	.	.	.	.	.
4r	.	.	8E\L	.	.	.	.	.	8E/L	.	8e/L	.	8ee\L	.	.	.	.	.	.	.	.	.	.	.	.	.	.	.	.	4r	4ryy	.	.	.	.	.	.	.
.	.	.	8A\	.	.	.	.	.	8A/	.	8a/	.	8aa\	.	.	.	.	.	.	.	.	.	.	.	.	.	.	.	.	.	.	.	.	.	.	.	.	.
8r	.	.	8c#\J	[[	.	.	.	.	8c#/J	[[	8cc#/J	[[	8ccc#\J	[[	.	.	.	.	.	.	.	.	.	.	.	.	.	.	.	8r	8ryy	.	.	.	.	.	.	.
*	*	*	*	*	*	*	*	*	*	*	*	*	*	*	*	*	*	*	*	*	*	*	*	*	*	*	*	*	*	*v	*v	*	*	*	*	*	*	*
=39	=39	=39	=39	=39	=39	=39	=39	=39	=39	=39	=39	=39	=39	=39	=39	=39	=39	=39	=39	=39	=39	=39	=39	=39	=39	=39	=39	=39	=39	=39	=39	=39	=39	=39	=39	=39	=39
4r	.	2.ryy	8e\	.	2.ryy	2.ryy	2.ryy	2.ryy	8e\	.	8ee\	.	8eee\	.	2.r;	.	2.r;	.	2.r;	.	2.ryy	2.ryy	2.ryy	2.r;	.	2.r;	.	2.r;	.	2.r;	.	2.r;	.	2.r;	.	2.r;	.
.	.	.	8r	.	.	.	.	.	8r	.	8r	.	8r	.	.	.	.	.	.	.	.	.	.	.	.	.	.	.	.	.	.	.	.	.	.	.	.
8r	.	.	8r	.	.	.	.	.	8r	.	8ryy	.	8r	.	.	.	.	.	.	.	.	.	.	.	.	.	.	.	.	.	.	.	.	.	.	.	.
!LO:TX:a:t=arco	!LO:DY:rj	!	!	!	!	!	!	!	!	!	!	!LO:DY:rj	!	!LO:DY:rj	!	!	!	!	!	!	!	!	!	!	!	!	!	!	!	!	!	!	!	!	!	!	!
8E\	sf	.	8E\	sf	.	.	.	.	8e\	sf	8ee\ 8b\ 8e\	sf	8gg#\ 8b\ 8e\	sf	.	.	.	.	.	.	.	.	.	.	.	.	.	.	.	.	.	.	.	.	.	.	.
8r	.	.	8r	.	.	.	.	.	8r	.	8r	.	8r	.	.	.	.	.	.	.	.	.	.	.	.	.	.	.	.	.	.	.	.	.	.	.	.
8r;	.	.	8r;	.	.	.	.	.	8r	.	8r;	.	8r;	.	.	.	.	.	.	.	.	.	.	.	.	.	.	.	.	.	.	.	.	.	.	.	.
*	*	*	*	*	*	*	*	*	*	*	*	*	*	*	*	*	*	*	*	*	*	*	*	*	*	*	*	*clefC4	*	*	*	*	*	*	*	*	*
=40	=40	=40	=40	=40	=40	=40	=40	=40	=40	=40	=40	=40	=40	=40	=40	=40	=40	=40	=40	=40	=40	=40	=40	=40	=40	=40	=40	=40	=40	=40	=40	=40	=40	=40	=40	=40	=40
*	*	*	*	*	*	*	*	*	*	*	*	*	*	*	*	*	*	*	*	*	*	*	*	*^	*	*	*	*	*	*	*	*	*	*	*	*	*
!	!	!	!	!	!	!	!	!	!	!	!	!	!	!	!	!	!	!	!	!	!	!	!	!	!	!	!LO:SIC:v:s=4.e	!	!LO:TX:a:t=(x)	!LO:DY:rj	!	!LO:DY:rj	!	!LO:DY:rj	!	!LO:DY:rj	!	!LO:DY:rj
!	!LO:DY:a	!	!	!	!	!	!	!	!	!	!	!LO:DY:rj	!	!LO:DY:rj	!	!	!	!	!	!	!	!	!	!	!	!LO:DY:rj	!	!LO:DY:rj	!LO:TX:a:t=Fag	!	!	!	!	!	!	!	!	!
4AA/	ff	2.ryy	yy8c#^\Lyy	.	2.ryy	2.ryy	2.ryy	2.ryy	(8a\L	.	8cc#/ 8e/ 8A/	ff	8aa\ 8a\	ff	8A\	.	8e\ 8c#\	.	8ee\ 8a\	.	2.ryy	2.ryy	2.ryy	[>4.A^/	[>4.A^\	f	[4.f/ [4.F^/	f	(4e\ 4c#^\	ff	(4aa\ (4cc#\	ff	(4aa\ (4cc#^\	ff	(4aa^\	f	(4ccc#^\	f
.	.	.	8A\yy	.	.	.	.	.	8e\)	.	8r	.	8r	.	8r	.	8r	.	8r	.	.	.	.	.	.	.	.	.	.	.	.	.	.	.	.	.	.	.
8r	.	.	8E\J)yy	.	.	.	.	.	8a\J	.	8a'/	.	8cc#\|	.	8r	.	8r	.	8r	.	.	.	.	.	.	.	.	.	8c#\ 8A\)	.	8cc#\ 8a\))	.	8cc#\ 8a\))	.	8cc#\)	.	8aa\)	.
*	*	*	*	*	*	*	*	*	*rep	*	*	*	*	*	*	*	*	*	*	*	*	*	*	*	*	*	*	*	*	*	*	*	*	*	*	*	*	*
!	!	!	!	!	!	!	!	!	!	!	!	!	!	!	!	!	!	!	!	!	!	!	!	!	!	!	!LO:SIC:v:s=4.e	!	!	!	!	!	!	!	!	!	!	!
4E\	.	.	(yy8c#^\Lyy	.	.	.	.	.	(8a\L	.	8a/L|	<	8cc#\L|	<	4r	.	4r	.	4r	.	.	.	.	(>(>4.A^/]	4.A^\]	.	4.f/] [4.F^/]	.	8c#\L 8A\|	<	8cc#\L 8a'\	<	8cc#\L 8a'\	.	8cc#'\L	<	8aa'\L	<
.	.	.	8A\yy	.	.	.	.	.	8e\)	.	8b/|	.	8dd\|	.	.	.	.	.	.	.	.	.	.	.	.	.	.	.	8d\ 8B\|	.	8dd\ 8b'\	.	8dd\ 8b'\	.	8dd'\	.	8bb'\	.
8r	.	.	8E\J)yy	.	.	.	.	.	8a\J	.	8cc#/J|	[[	8ee\J|	[[	8r	.	8r	.	8r	.	.	.	.	.	.	.	.	.	8e\J 8c#\|	[[	8cc#\J 8a'\	[[	8ee\J 8cc#'\	.	8ee'\J	[[	8ccc#'\J	[[
*	*	*	*	*	*	*	*	*	*Xrep	*	*	*	*	*	*	*	*	*	*	*	*	*	*	*	*	*	*	*	*	*	*	*	*	*	*	*	*	*
=41	=41	=41	=41	=41	=41	=41	=41	=41	=41	=41	=41	=41	=41	=41	=41	=41	=41	=41	=41	=41	=41	=41	=41	=41	=41	=41	=41	=41	=41	=41	=41	=41	=41	=41	=41	=41	=41	=41
*	*	*	*	*	*	*	*	*	*	*	*	*	*	*	*	*	*	*	*	*	*	*	*	*	*	*	*	*	*	*	*^	*	*^	*	*	*	*	*
!	!	!	!	!	!	!	!	!	!	!	!	!	!	!	!	!	!	!	!	!	!	!	!	!	!	!	!LO:SIC:v:s=4.e	!	!	!	!	!	!	!	!	!	!	!	!	!
!	!	!	!	!	!	!	!	!	!	!	!	!	!	!	!	!	!	!	!	!	!	!	!	!	!	!	!LO:SIC:v:s=4.b	!	!	!	!	!	!	!	!	!	!	!	!	!
4A\	.	2.ryy	(yy8B^\Lyy	.	2.ryy	2.ryy	2.ryy	2.ryy	(8a^\L	.	(yy8a^/Lyy	.	(4.ff#yy\ yy(yy4.dd^\yy	.	2.r	.	2.r	.	2.r	.	2.ryy	2.ryy	2.ryy	(4.f#\))	[>4.d^\	.	4.c/ 4.F/_	.	((4.f#\ 4.d\	.	4.b^/	4.a\	.	(4.ff#\ (4.dd^\	4.ryy	.	4.ff#^\	.	(4ddd\	>
.	.	.	8E\yy	.	.	.	.	.	8b\	.	8b/yy	.	.	.	.	.	.	.	.	.	.	.	.	.	.	.	.	.	.	.	.	.	.	.	.	.	.	.	.	.
8r	.	.	8B\J)yy	.	.	.	.	.	8a\J)	.	8a/J)yy	.	.	.	.	.	.	.	.	.	.	.	.	.	.	.	.	.	.	.	.	.	.	.	.	.	.	.	8bb\)	]
!	!	!	!	!	!	!	!	!	!	!	!	!	!	!	!	!	!	!	!	!	!	!	!	!	!	!	!LO:SIC:v:s=4.b	!	!	!	!	!	!	!	!	!	!	!	!	!
!	!	!	!	!	!	!	!	!	!	!	!	!	!	!	!	!	!	!	!	!	!	!	!	!	!	!	!LO:SIC:v:s=4.e	!	!	!	!	!	!	!	!	!	!	!	!	!
4E\	.	.	(yy8B^\Lyy	.	.	.	.	.	(8g#\L	.	(yy8g#/Lyy	.	8eeyy\ 8cc#\))yy	.	.	.	.	.	.	.	.	.	.	4.e/)	4.d^\]	.	4.c/ 4.F/]	.	4.B\ 4.G#\))	.	8ee/	8a\	.	8ee\ 8cc#\))	4ryy	.	8ee\	.	8eee\	.
.	.	.	8E\yy	.	.	.	.	.	8f#\)	.	8f#/)yy	.	8ryy	.	.	.	.	.	.	.	.	.	.	.	.	.	.	.	.	.	8r	8ryy	.	8r	.	.	8r	.	8r	.
8r	.	.	8B\J)yy	.	.	.	.	.	8e\J	.	8e/Jyy	.	8ee\yy	.	.	.	.	.	.	.	.	.	.	.	.	.	.	.	.	.	8ee/	8ee\	.	8ee/	8ee\	.	8ee\	.	8eee\	.
!!LO:PB:g=original
=42	=42	=42	=42	=42	=42	=42	=42	=42	=42	=42	=42	=42	=42	=42	=42	=42	=42	=42	=42	=42	=42	=42	=42	=42	=42	=42	=42	=42	=42	=42	=42	=42	=42	=42	=42	=42	=42	=42	=42	=42
*rep	*	*	*rep	*	*	*	*	*	*rep	*	*	*	*	*	*	*	*	*	*	*	*	*	*	*	*	*	*	*	*rep	*	*rep	*	*	*rep	*rep	*	*rep	*	*rep	*
!	!	!	!	!	!	!	!	!	!	!	!	!	!	!	!	!	!	!	!	!	!	!	!	!	!	!	!	!	!LO:TX:a:t=(x)	!	!	!	!	!	!	!	!	!	!	!
!	!LO:DY:a	!	!	!	!	!	!	!	!	!	!	!	!	!	!	!	!	!	!	!	!	!	!	!	!	!	!	!	!LO:TX:a:t=Fag	!	!	!	!	!	!	!	!	!	!	!
4AA/	ff	2.ryy	(yy8c#^\Lyy	.	2.ryy	2.ryy	2.ryy	2.ryy	(8a\L	.	8cc#yy/ 8eyy/ 8A/yy	ffyy	8aayy\ 8a\yy	ffyy	8A\yy	.	8eyy\ 8c#\yy	.	8eeyy\ 8a\yy	.	2.ryy	2.ryy	2.ryy	4e\ 4c#\	4.ryy	.	2.ryy	.	(4e\ 4c#^\	ff	(4aa\ (4cc#\	2.r	ff	(4aa/ (4cc#^/	2.r	ff	(4aa^\	fyy	(4ccc#^\	fyy
.	.	.	8A\yy	.	.	.	.	.	8e\)	.	8ryy	.	8ryy	.	8ryy	.	8ryy	.	8ryy	.	.	.	.	.	.	.	.	.	.	.	.	.	.	.	.	.	.	.	.	.
8r	.	.	8E\J)yy	.	.	.	.	.	8a\J	.	8a'/yy	.	8cc#\yy|	.	8ryy	.	8ryy	.	8ryy	.	.	.	.	8r	.	.	.	.	8c#\ 8A\)	.	8cc#/ 8a/))	.	.	8cc#/ 8a/))	.	.	8cc#\)	.	8aa\)	.
4E\	.	.	(yy8c#^\Lyy	.	.	.	.	.	(8a\L	.	8a/Lyy|	<yy	8cc#\Lyy|	.	4ryy	.	4ryy	.	4ryy	.	.	.	.	(>(>4.A^/	4.A\	.	.	.	8c#\L 8A\|	<	8cc#/L 8a'/	.	<	8cc#/L 8a'/	.	.	8cc#'\L	<yy	8aa'\L	<yy
.	.	.	8A\yy	.	.	.	.	.	8e\)	.	8b/yy|	.	8dd\yy|	.	.	.	.	.	.	.	.	.	.	.	.	.	.	.	8d\ 8B\|	.	8dd/ 8b'/	.	.	8dd/ 8b'/	.	.	8dd'\	.	8bb'\	.
8r	.	.	8E\J)yy	.	.	.	.	.	8a\J	.	8cc#/Jyy|	[[	8ee\Jyy|	.	8ryy	.	8ryy	.	8ryy	.	.	.	.	.	.	.	.	.	8e\J 8c#\|	[[	8cc#/J 8a'/	.	.	8ee/J 8cc#'/	.	.	8ee'\J	[[	8ccc#'\J	[[
*Xrep	*	*	*Xrep	*	*	*	*	*	*Xrep	*	*	*	*	*	*	*	*	*	*	*	*	*	*	*	*	*	*	*	*Xrep	*	*Xrep	*	*	*Xrep	*Xrep	*	*Xrep	*	*Xrep	*
*	*	*	*	*	*	*	*	*	*	*	*	*	*	*	*	*	*	*	*	*	*	*	*	*v	*v	*	*	*	*	*	*	*	*	*	*	*	*	*	*	*
=43	=43	=43	=43	=43	=43	=43	=43	=43	=43	=43	=43	=43	=43	=43	=43	=43	=43	=43	=43	=43	=43	=43	=43	=43	=43	=43	=43	=43	=43	=43	=43	=43	=43	=43	=43	=43	=43	=43	=43
*rep	*	*	*rep	*	*	*	*	*	*rep	*	*	*	*	*	*	*	*	*	*	*	*	*	*	*	*	*	*	*rep	*	*rep	*rep	*	*rep	*rep	*	*rep	*	*rep	*
4A\	.	2.ryy	(yy8B^\Lyy	.	2.ryy	2.ryy	2.ryy	2.ryy	(8a^\L	.	(yy8a^/Lyy	.	(4.ff#yy\ yy(yy4.dd^\yy	.	2.ryy	.	2.ryy	.	2.ryy	.	2.ryy	2.ryy	2.ryy	(>4.f#\ (>4.d^\))	.	2.ryy	.	4.f#\ 4.d\	.	4.b^/	4.a\	[	(4.ff#\ (4.dd^\	4.ryy	.	4.ff#^\	.	(4ddd\	>
.	.	.	8E\yy	.	.	.	.	.	8b\	.	8b/yy	.	.	.	.	.	.	.	.	.	.	.	.	.	.	.	.	.	.	.	.	.	.	.	.	.	.	.	.
8r	.	.	8B\J)yy	.	.	.	.	.	8a\J)	.	8a/J)yy	.	.	.	.	.	.	.	.	.	.	.	.	.	.	.	.	.	.	.	.	.	.	.	.	.	.	8bb\)	]
4E\	.	.	(yy8B^\Lyy	.	.	.	.	.	(8g#\L	.	(yy8g#/Lyy	.	8eeyy\ 8cc#\))yy	.	.	.	.	.	.	.	.	.	.	4.e\ 4.c#^\))	.	.	.	4.B\ 4.G#\	.	8ee/	8a\	.	8ee\ 8cc#\))	4ryy	.	8ee\	.	8eee\	.
.	.	.	8E\yy	.	.	.	.	.	8f#\)	.	8f#/)yy	.	8ryy	.	.	.	.	.	.	.	.	.	.	.	.	.	.	.	.	8r	8ryy	.	8r	.	.	8r	.	8r	.
8r	.	.	8B\J)yy	.	.	.	.	.	8e\J	.	8e/Jyy	.	8ee\yy	.	.	.	.	.	.	.	.	.	.	.	.	.	.	.	.	8ee/	8ee\	.	8ee/	8ee\	.	8ee\	.	8eee\	.
*Xrep	*	*	*Xrep	*	*	*	*	*	*Xrep	*	*	*	*	*	*	*	*	*	*	*	*	*	*	*	*	*	*	*Xrep	*	*Xrep	*Xrep	*	*Xrep	*Xrep	*	*Xrep	*	*Xrep	*
=44	=44	=44	=44	=44	=44	=44	=44	=44	=44	=44	=44	=44	=44	=44	=44	=44	=44	=44	=44	=44	=44	=44	=44	=44	=44	=44	=44	=44	=44	=44	=44	=44	=44	=44	=44	=44	=44	=44	=44
!	!	!	!	!	!	!	!	!	!	!	!	!	!	!	!	!	!	!	!	!	!	!	!	!	!	!LO:SIC:v:s=4.e	!	!	!	!	!	!	!	!	!	!LO:TX:a:t=Col V. 1mo	!	!LO:TX:a:t=Col V. 1mo	!
4A\	.	2.ryy	(4c#^\	.	2.ryy	2.ryy	2.ryy	2.ryy	(8a^\L	.	(8cc#^/L	.	4ccc#^\	.	8A\	.	8e\ 8c#\	.	8cc#X\ 8a\	.	2.ryy	2.ryy	2.ryy	[4.c#/ [>4.A^/	.	[4.f/ [4.F^/	.	[>2.e\ [>2.c#\	.	[>2.cc#/	[>2.a\	.	4ccc#/	4ccc#\	.	4ccc#^\yy	.	4ccc#^\yy	.
.	.	.	.	.	.	.	.	.	8e\	.	8a/	.	.	.	8r	.	8r	.	8r	.	.	.	.	.	.	.	.	.	.	.	.	.	.	.	.	.	.	.	.
8r	.	.	8E\)	.	.	.	.	.	8c#\J)	.	8e/J)	.	8gg#\	.	8r	.	8r	.	8r	.	.	.	.	.	.	.	.	.	.	.	.	.	8gg#/	8gg#\	.	8gg#\yy	.	8gg#\yy	.
*	*	*	*rep	*	*	*	*	*	*rep	*	*rep	*	*	*	*	*	*	*	*	*	*	*	*	*	*	*	*	*	*	*	*	*	*	*	*	*	*	*	*
!	!	!	!	!	!	!	!	!	!	!	!	!	!	!	!	!	!	!	!	!	!	!	!	!	!	!LO:SIC:v:s=4.e	!	!	!	!	!	!	!	!	!	!	!	!	!
4A\	.	.	(4c#^\	.	.	.	.	.	(8a^\L	.	(8cc#^/L	.	4aa^\	.	4r	.	4r	.	4r	.	.	.	.	4.c#/_ 4.A^/_>	.	4.f/_ 4.F^/_	.	.	.	.	.	.	4aa/	4aa\	.	4aa^\yy	.	4aa^\yy	.
.	.	.	.	.	.	.	.	.	8e\	.	8a/	.	.	.	.	.	.	.	.	.	.	.	.	.	.	.	.	.	.	.	.	.	.	.	.	.	.	.	.
8r	.	.	8E\)	.	.	.	.	.	8c#\J)	.	8e/J)	.	8dd#X\	.	8r	.	8r	.	8r	.	.	.	.	.	.	.	.	.	.	.	.	.	8dd#X/	8dd#\	.	8dd#X\yy	.	8dd#X\yy	.
*	*	*	*Xrep	*	*	*	*	*	*Xrep	*	*Xrep	*	*	*	*	*	*	*	*	*	*	*	*	*	*	*	*	*	*	*	*	*	*	*	*	*	*	*	*
=45	=45	=45	=45	=45	=45	=45	=45	=45	=45	=45	=45	=45	=45	=45	=45	=45	=45	=45	=45	=45	=45	=45	=45	=45	=45	=45	=45	=45	=45	=45	=45	=45	=45	=45	=45	=45	=45	=45	=45
*	*	*	*rep	*	*	*	*	*	*rep	*	*rep	*	*	*	*	*	*	*	*	*	*	*	*	*	*	*	*	*	*	*	*	*	*	*	*	*	*	*	*
!	!	!	!	!	!	!	!	!	!	!	!	!	!	!	!	!	!	!	!	!	!	!	!	!	!	!LO:SIC:v:s=4.e	!	!	!	!	!	!	!	!	!	!	!	!	!
4A\	.	2.ryy	(4c#\	.	2.ryy	2.ryy	2.ryy	2.ryy	(8a^\L	.	(8cc#^/L	.	4ee^\	.	2.r	.	2.r	.	2.r	.	2.ryy	2.ryy	2.ryy	4.c#/_ 4.A^/_	.	4.f/_ 4.F^/_	.	2.e\_> 2.c#\_>	.	8cc#/]	8a\]	.	4ee/	4ee\	.	4ee^\yy	.	4ee^\yy	.
.	.	.	.	.	.	.	.	.	8e\	.	8a/	.	.	.	.	.	.	.	.	.	.	.	.	.	.	.	.	.	.	8r	8ryy	.	.	.	.	.	.	.	.
8r	.	.	8E\)	.	.	.	.	.	8c#\J)	.	8e/J)	.	8b#X\	.	.	.	.	.	.	.	.	.	.	.	.	.	.	.	.	8b#X/	8b#\	.	8b#X/	8b#\	.	8b#X\yy	.	8b#X\yy	.
*	*	*	*Xrep	*	*	*	*	*	*Xrep	*	*Xrep	*	*	*	*	*	*	*	*	*	*	*	*	*	*	*	*	*	*	*	*	*	*	*	*	*	*	*	*
!	!	!	!	!	!	!	!	!	!	!	!	!	!	!	!	!	!	!	!	!	!	!	!	!	!	!LO:SIC:v:s=4.e	!	!	!	!	!	!	!	!	!	!	!	!	!
4r	.	.	(8c#^\L	.	.	.	.	.	(8c#^\L	.	(8cc#^<\L	.	(8cc#^<\L	.	.	.	.	.	.	.	.	.	.	8c#/] 8A/]	.	8f/] 8F/]	.	.	.	(8cc#^</L	8cc#\L	.	(8cc#/L	8cc#^\L	.	(yy8cc#^\Lyy	.	(yy8cc#^\Lyy	.
.	.	.	8e\)	.	.	.	.	.	8e\)	.	8ee\)	.	8ee\)	.	.	.	.	.	.	.	.	.	.	8r	.	8r	.	.	.	8ee/	8ee\	.	8ee/)	8ee\	.	8ee\)yy	.	8ee\)yy	.
8r	.	.	8c#\J	.	.	.	.	.	8c#\J	.	8cc#\J	.	8cc#\J	.	.	.	.	.	.	.	.	.	.	8r	.	8r	.	.	.	8cc#/J)	8cc#\J	.	8cc#/J	8cc#\J	.	8cc#\Jyy	.	8cc#\Jyy	.
=46	=46	=46	=46	=46	=46	=46	=46	=46	=46	=46	=46	=46	=46	=46	=46	=46	=46	=46	=46	=46	=46	=46	=46	=46	=46	=46	=46	=46	=46	=46	=46	=46	=46	=46	=46	=46	=46	=46	=46
*	*	*	*	*	*	*	*	*	*	*	*	*	*	*	*	*	*	*	*	*	*	*	*	*	*	*	*	*^	*	*	*	*	*	*	*	*	*	*	*
4r	.	2.ryy	8A\	.	2.ryy	2.ryy	2.ryy	2.ryy	8A/	.	8a/	.	8a/	.	4r	.	4r	.	4r	.	2.ryy	2.ryy	2.ryy	4r	.	4r	.	8e/] 8c#/]	4.ryy	.	8a/	8a\	.	8a/	8a\	.	8a\	.	8a\	.
.	.	.	8r	.	.	.	.	.	8r	.	8r	.	8r	.	.	.	.	.	.	.	.	.	.	.	.	.	.	8r	.	.	8r	8ryy	.	8r	8ryy	.	8r	.	8r	.
8r	.	.	8r	.	.	.	.	.	8r	.	8r	.	8r	.	8r	.	8r	.	8r	.	.	.	.	8r	.	8r	.	8r	.	.	8r	8ryy	.	8r	8ryy	.	8r	.	8r	.
!	!	!	!	!LO:DY:rj	!	!	!	!	!	!LO:DY:rj	!	!LO:DY:rj	!	!LO:DY:rj	!	!LO:DY:rj	!	!LO:DY:rj	!	!LO:DY:rj	!	!	!	!	!	!LO:SIC:v:s=4.e	!	!	!	!LO:DY:rj	!	!	!LO:DY:rj	!	!	!LO:DY:rj	!	!LO:DY:rj	!	!LO:DY:rj
8AA/	ff	.	8AA/	ff	.	.	.	.	8a\ 8e\ 8A\	ff	8cc#/ 8e/ 8A/	ff	8aa\ 8a\	ff	8A\	ff	8e\ 8c#\	ff	8cc#X\ 8a\	ff	.	.	.	8c#/ 8A/	ff	8f/ 8F/	ff	8A/	8A\	ff	8ee\ 8cc#\	4.ryy	ff	8aa\ 8cc#\	4.ryy	ff	8aa\	ff	8ccc#\	ff
8r	.	.	8r	.	.	.	.	.	8r	.	8r	.	8r	.	8r	.	8r	.	8r	.	.	.	.	8r	.	8r	.	8r	8ryy	.	8r	.	.	8r	.	.	8r	.	8r	.
8r	.	.	8r	.	.	.	.	.	8r	.	8r	.	8r	.	8r	.	8r	.	8r	.	.	.	.	8r	.	8r	.	8r	8ryy	.	8r	.	.	8r	.	.	8r;	.	8r;	.
*	*	*	*	*	*	*	*	*	*	*	*	*	*	*	*	*	*	*	*	*	*	*	*	*	*	*	*	*v	*v	*	*	*	*	*v	*v	*	*	*	*	*
*	*	*	*	*	*	*	*	*	*	*	*	*	*	*	*	*	*	*	*	*	*	*	*	*	*	*	*	*	*	*v	*v	*	*	*	*	*	*	*
==	==	==	==	==	==	==	==	==	==	==	==	==	==	==	==	==	==	==	==	==	==	==	==	==	==	==	==	==	==	==	==	==	==	==	==	==	==
*-	*-	*-	*-	*-	*-	*-	*-	*-	*-	*-	*-	*-	*-	*-	*-	*-	*-	*-	*-	*-	*-	*-	*-	*-	*-	*-	*-	*-	*-	*-	*-	*-	*-	*-	*-	*-	*-
!!!system-decoration: s1,s2,s3,s4,s5[(s6,s7)]s8[(s9,s10)]s11[(s12,s13)]s14,s15,s16,s17,s18,s19,s20,s21,s22,s23
!!!RDF**kern: > = above
!!!RDF**kern: < = below
!!!EED: Leszek Kubiak
!!!EST: 2021-09-02
!!!ENC: Andrzej Gręziak
!!!END: 2021-07-24
!!!RDF**kern: | = vertical stroke
